!!!!SEGMENT: pl-cz--iii-753--001-011_zebrowski-marcin-jozef--vesperae-in-d-lauda-jerusalem.krn
!!!cenid: 17xx:2382
!!!COM: Żebrowski, Marcin Józef
!!!COM-rismID:
!!!CDT: 1702-1770/06/29
!!!CNT: Polish
!!!OPR: Vesperae in D
!!!OTL: Lauda Jerusalem
!!!OMV: 011
!!!PDT:
!!!AGN:
!!!SMS-siglum: PL-CZ
!!!SMS-shelfmark: III-753
!!!SMS-shelfwork: 001-011 M
!!!SMS-variant:
!!!SMS-altvar:
!!!NIFC-rismSourceID: 300033505
!!!NIFC-islandoraID: pl-cz:25492
!!!URL-pdf-islandora: https://repozytorium.nifc.pl/islandora/object/pl-cz%3A25492/datastream/PDF/view
!!!URL-scan: https://polish.musicsources.pl/pl/lokalizacje/galeria/rekopisy/1484 @EN{Scan on Polish Music Herritage in Open Access Website} @PL{Skany w portalu Dziedzictwo Muzyki Polskiej w otwartym dostępie}
!!!ONB-nifc: UWAGA: części Nieszporów: 1. Dixit Dominus, 2. Confitebor, 3. Beatus vir, 4. Laudate pueri, 5. Laudate Dominum, 6. Credidi, 7. In convertendo, 8. Domine probasti me, 9. Laetatus sum, 10. Nisi Dominus, 11. Lauda Jerusalem, 12. Magnificat, 13. Quia respexit, 14. Deposuit potentes, 15. Gloria patri
!!!AIN: 1 alto 1 bass 2 clrno 1 fagot 1 organ 1 soprn 1 tenor 2 violn
!!!key: D
**kern	**fba	**kern	**kern	**dynam	**kern	**dynam	**kern	**text	**kern	**text	**kern	**text	**kern	**text	**kern	**dynam	**kern	**dynam
*group4	*	*group4	*group3	*	*group3	*	*group2	*	*group2	*	*group2	*	*group2	*	*group1	*	*group1	*
*part10	*	*part9	*part8	*part8	*part7	*part7	*part6	*part6	*part5	*part5	*part4	*part4	*part3	*part3	*part2	*	*part1	*
*staff10	*	*staff9	*staff8	*	*staff7	*	*staff6	*staff6	*staff5	*staff5	*staff4	*staff4	*staff3	*staff3	*staff2	*	*staff1	*
*I"Organo.	*	*I"Baſsone.	*I"Violino Secondo.	*	*I"Violino Primo.	*	*I"Baſso.	*	*I"Tenore.	*	*I"Alto.	*	*I"Canto.	*	*I"Clarino Secondo ex D.	*	*I"Clarino Primo ex D	*
*I'org	*	*I'fag	*I'vl 2	*	*I'vl 1	*	*I'B	*	*I'T	*	*I'A	*	*I'S	*	*I'clno 2	*	*I'clno 1	*
*Iorgan	*	*Ifagot	*Ivioln	*	*Ivioln	*	*Ibass	*	*Itenor	*	*Ialto	*	*Isoprn	*	*Iclrno	*	*Iclrno	*
*ICklav	*	*ICww	*ICstr	*	*ICstr	*	*ICvox	*	*ICvox	*	*ICvox	*	*ICvox	*	*ICbras	*	*ICbras	*
*IGcont	*	*IGcont	*	*	*	*	*IGcoro	*	*IGcoro	*	*IGcoro	*	*IGcoro	*	*	*	*	*
*clefF4	*	*clefF4	*clefG2	*	*clefG2	*	*clefF4	*	*clefC4	*	*clefC3	*	*clefC1	*	*clefG2	*	*clefG2	*
*	*	*	*	*	*	*	*	*	*	*	*	*	*	*	*ITrd-1c-2	*	*ITrd-1c-2	*
*k[f#c#]	*	*k[f#c#]	*k[f#c#]	*	*k[f#c#]	*	*k[f#c#]	*	*k[f#c#]	*	*k[f#c#]	*	*k[f#c#]	*	*k[f#c#]	*	*k[f#c#]	*
*D:	*	*D:	*D:	*	*D:	*	*D:	*	*D:	*	*D:	*	*D:	*	*D:	*	*D:	*
*M3/4	*	*M3/4	*M3/4	*	*M3/4	*	*M3/4	*	*M3/4	*	*M3/4	*	*M3/4	*	*M3/4	*	*M3/4	*
=1	=1	=1	=1	=1	=1	=1	=1	=1	=1	=1	=1	=1	=1	=1	=1	=1	=1	=1
!LO:TX:a:i:rj:t=Allo.	!	!LO:TX:a:rj:i:t=Alló.	!	!	!LO:TX:b:rj:t=Allo.	!	!LO:TX:a:rj:t=Allo.	!	!LO:TX:a:rj:t=Allo.	!	!LO:TX:a:t=Allo.	!	!LO:TX:a:t=allo	!	!	!	!	!
!LO:TX:b:i:t=Solo.	!	!LO:TX:a:rj:i:t=Solo.	!LO:TX:b:rj:t=Allo&colon;	!	!	!	!LO:TX:a:t=16.	!	!LO:TX:a:t=16.	!	!LO:TX:a:t=16.	!	!LO:TX:a:t=16.	!	!LO:TX:a:rj:t=Allo.	!	!LO:TX:a:t=Allo.	!
4D/	.	4D/	4f#/	.	4a/	.	0.r	.	0.r	.	0.r	.	0.r	.	4f#/	.	4a/	.
4F#\	6	4F#\	8.a\L	.	8.dd\L	.	.	.	.	.	.	.	.	.	8.a/L	.	8.dd\L	.
.	.	.	16dd\K	.	16ff#\K	.	.	.	.	.	.	.	.	.	16dd/Jk	.	16ff#\Jk	.
4A\	7	4A\	8.cc#\	.	8.ee\	.	.	.	.	.	.	.	.	.	8.a/L	.	8.ee\L	.
.	.	.	16ee\Jk	.	16gg\Jk	.	.	.	.	.	.	.	.	.	16ee/Jk	.	16gg\Jk	.
=2	=2	=2	=2	=2	=2	=2	=2	=2	=2	=2	=2	=2	=2	=2	=2	=2	=2	=2
!	!	!	!LO:TX:a:t=P:problem: klamra łukowa	!	!LO:TX:a:t=P:problem: klamra łukowa	!	!	!	!	!	!	!	!	!	!	!	!	!
!	!	!	!LO:TUP:a	!	!LO:TUP:a	!	!	!	!	!	!	!	!	!	!	!	!	!
4d\	.	4d\	12dd\L	.	12ff#\L	.	.	.	.	.	.	.	.	.	8dd\L	.	8ff#\L	.
.	.	.	12gg\	.	12bb\	.	.	.	.	.	.	.	.	.	.	.	.	.
.	.	.	.	.	.	.	.	.	.	.	.	.	.	.	8ee\J	.	8gg\J	.
.	.	.	12ff#\J	.	12aa\J	.	.	.	.	.	.	.	.	.	.	.	.	.
.	.	.	.	.	8qqbb/	.	.	.	.	.	.	.	.	.	.	.	.	.
*	*	*	*2\right	*	*2\right	*	*	*	*	*	*	*	*	*	*2\right	*	*2\right	*
8r	.	8r	2ff#\	.	2aa\	.	.	.	.	.	.	.	.	.	2ff#\	.	2aa\	.
8d\L|	.	8d\L|	.	.	.	.	.	.	.	.	.	.	.	.	.	.	.	.
8A\|	.	8A\|	.	.	.	.	.	.	.	.	.	.	.	.	.	.	.	.
8F#\J|	.	8F#\J|	.	.	.	.	.	.	.	.	.	.	.	.	.	.	.	.
=3	=3	=3	=3	=3	=3	=3	=3	=3	=3	=3	=3	=3	=3	=3	=3	=3	=3	=3
4D\	.	4D\	4f#/	.	4a/	.	.	.	.	.	.	.	.	.	4f#/	.	4a/	.
4F#\	6	4F#\	8.a\L	.	8.dd\L	.	.	.	.	.	.	.	.	.	8.a\L	.	8.dd\L	.
.	.	.	16dd\K	.	16ff#\K	.	.	.	.	.	.	.	.	.	16dd\Jk	.	16ff#\Jk	.
4A\	7	4A\	8.cc#\	.	8.ee\	.	.	.	.	.	.	.	.	.	8.a\L	.	8.ee\L	.
.	.	.	16ee\Jk	.	16gg\Jk	.	.	.	.	.	.	.	.	.	16ee\Jk	.	16gg\Jk	.
=4	=4	=4	=4	=4	=4	=4	=4	=4	=4	=4	=4	=4	=4	=4	=4	=4	=4	=4
4d\	9	4d\	(4ee\	.	(4.ff#\	.	.	.	.	.	.	.	.	.	8.dd\L	.	8.ff#\L	.
.	.	.	.	.	.	.	.	.	.	.	.	.	.	.	16ff#\Jk	.	16ddd\Jk	.
4D\	8	4D/	4dd\)	.	.	.	.	.	.	.	.	.	.	.	4ff#\	.	4ddd\	.
.	.	.	.	.	16gg#X\LL	.	.	.	.	.	.	.	.	.	.	.	.	.
.	.	.	.	.	16aa\JJ)	.	.	.	.	.	.	.	.	.	.	.	.	.
.	.	.	.	.	8qqff#/	.	.	.	.	.	.	.	.	.	.	.	.	.
4A\	.	4A\	4cc#\|	.	4ee\	.	.	.	.	.	.	.	.	.	4ee\	.	4ccc#\	.
=5	=5	=5	=5	=5	=5	=5	=5	=5	=5	=5	=5	=5	=5	=5	=5	=5	=5	=5
*2\right	*	*2\right	*	*	*	*	*	*	*	*	*	*	*	*	*	*	*	*
!	!	!	!	!	!	!	!	!	!	!	!	!	!	!	!LO:TX:a:t=2.	!	!LO:TX:a:t=2.	!
2B\	6	2B\	2dd\	.	(4ggn\	.	0.r	.	0.r	.	0.r	.	0.r	.	1.r	.	1.r	.
.	4 3	.	.	.	4ee#X\	.	.	.	.	.	.	.	.	.	.	.	.	.
4A\	6	4A\	4cc#\	.	4ff#\)|	.	.	.	.	.	.	.	.	.	.	.	.	.
!	!	!	!	!	!LO:LB:g=original	!	!	!	!	!	!	!	!	!	!	!	!	!
=6	=6	=6	=6	=6	=6	=6	=6	=6	=6	=6	=6	=6	=6	=6	=6	=6	=6	=6
2G\	6	2G\	2b/	.	(4een\	.	.	.	.	.	.	.	.	.	.	.	.	.
.	4 3	.	.	.	4cc#\	.	.	.	.	.	.	.	.	.	.	.	.	.
4F#\	6	4F#\	4a/	.	4dd\)|	.	.	.	.	.	.	.	.	.	.	.	.	.
=7	=7	=7	=7	=7	=7	=7	=7	=7	=7	=7	=7	=7	=7	=7	=7	=7	=7	=7
4G\	6	4G\	(8b/L	.	(32ee\LLL	.	.	.	.	.	.	.	.	.	4ee\	.	4gg\	.
.	.	.	.	.	32gg\JJ	.	.	.	.	.	.	.	.	.	.	.	.	.
.	.	.	.	.	8.bb\J)	.	.	.	.	.	.	.	.	.	.	.	.	.
.	.	.	8g/J)	.	.	.	.	.	.	.	.	.	.	.	.	.	.	.
.	.	.	8qqf#/	.	.	.	.	.	.	.	.	.	.	.	.	.	.	.
4GG/	.	4GG/	2eT/	.	4b\	.	.	.	.	.	.	.	.	.	4ee\	.	4gg\	.
4AA/	.	4AA/	.	.	4cc#t\	.	.	.	.	.	.	.	.	.	8dd\L	.	8ff#\L	.
.	.	.	.	.	.	.	.	.	.	.	.	.	.	.	8a\J	.	8ee\J	.
=8	=8	=8	=8	=8	=8	=8	=8	=8	=8	=8	=8	=8	=8	=8	=8	=8	=8	=8
!	!	!	!LO:TX:a:t=P:problem:mixed beam	!	!	!	!	!	!	!	!	!	!	!	!	!	!	!
.	.	.	.	.	8qqcc#/	.	.	.	.	.	.	.	.	.	.	.	.	.
8D\L|<	.	8BB\L	8f#/L	.	2dd\	.	.	.	.	.	.	.	.	.	4f#/	.	4dd\	.
8d\|	.	8d\|	8ff#\	.	.	.	.	.	.	.	.	.	.	.	.	.	.	.
8c#\|	.	8c#\|	8ee\	.	.	.	.	.	.	.	.	.	.	.	4r	.	4r	.
8B\|	.	8B\|	8dd\	.	.	.	.	.	.	.	.	.	.	.	.	.	.	.
8A\|	.	8A\|	8cc#\	.	4r	.	.	.	.	.	.	.	.	.	4r	.	4r	.
8G\J|	.	8G\J|	8b\J	.	.	.	.	.	.	.	.	.	.	.	.	.	.	.
!	!	!	!LO:LB:g=original	!	!	!	!	!	!	!	!	!	!	!	!	!	!	!
=9	=9	=9	=9	=9	=9	=9	=9	=9	=9	=9	=9	=9	=9	=9	=9	=9	=9	=9
4F#\	6	4F#\	4a/	p	8r	.	0.r	.	0.r	.	0.r	.	0.r	.	4a/	.	4dd\	.
.	.	.	.	.	(8ddd\L	p	.	.	.	.	.	.	.	.	.	.	.	.
4E\	.	4E\	4g/	.	8ccc#\	.	.	.	.	.	.	.	.	.	4r	.	4r	.
.	.	.	.	.	8ddd\	.	.	.	.	.	.	.	.	.	.	.	.	.
4D\	.	4D\	4f#/	.	8ccc#\	.	.	.	.	.	.	.	.	.	4r	.	4r	.
.	.	.	.	.	8ddd\J)	.	.	.	.	.	.	.	.	.	.	.	.	.
!LO:LB:g=original	!	!LO:LB:g=original	!	!	!	!	!	!	!	!	!	!	!	!	!	!	!	!
=10	=10	=10	=10	=10	=10	=10	=10	=10	=10	=10	=10	=10	=10	=10	=10	=10	=10	=10
4G\	.	4G\	(4.gg\	.	(4.bb\	.	.	.	.	.	.	.	.	.	4r	.	4r	.
4GG/	.	4GG/	.	.	.	.	.	.	.	.	.	.	.	.	4gg\	.	4bb\	.
.	.	.	16aa\LL	.	16ccc#\LL	.	.	.	.	.	.	.	.	.	.	.	.	.
.	.	.	16bb\JJ)	.	16ddd\JJ)	.	.	.	.	.	.	.	.	.	.	.	.	.
4D/	.	4D/	4ff#\|	.	4aa\|	.	.	.	.	.	.	.	.	.	4ff#\	.	4aa\	.
=11	=11	=11	=11	=11	=11	=11	=11	=11	=11	=11	=11	=11	=11	=11	=11	=11	=11	=11
4F#\	6	4F#\	4a/	.	8r	.	.	.	.	.	.	.	.	.	4a/	.	4dd\	.
.	.	.	.	.	8ddd\L|	.	.	.	.	.	.	.	.	.	.	.	.	.
4E\	.	4E\	4g/	.	(8ccc#\	.	.	.	.	.	.	.	.	.	4r	.	4r	.
.	.	.	.	.	8ddd\	.	.	.	.	.	.	.	.	.	.	.	.	.
4D\	.	4D\	4f#/	.	8ccc#\	.	.	.	.	.	.	.	.	.	4r	.	4r	.
.	.	.	.	.	8ddd\J)	.	.	.	.	.	.	.	.	.	.	.	.	.
=12	=12	=12	=12	=12	=12	=12	=12	=12	=12	=12	=12	=12	=12	=12	=12	=12	=12	=12
4A\	7	4A\	(4.cc#\	.	(4.ee\	.	.	.	.	.	.	.	.	.	4r	.	4r	.
4AA/	.	4AA/	.	.	.	.	.	.	.	.	.	.	.	.	4ee\	.	4gg\	.
.	.	.	16dd\LL	.	16ff#\LL	.	.	.	.	.	.	.	.	.	.	.	.	.
.	.	.	16ee\JJ)	.	16gg\JJ)	.	.	.	.	.	.	.	.	.	.	.	.	.
4D/	.	4D/	4dd\|	.	4ff#\|	.	.	.	.	.	.	.	.	.	4dd\	.	4ff#\	.
!	!	!	!	!	!	!	!	!	!	!	!	!	!	!	!LO:LB:g=original	!	!	!
=13	=13	=13	=13	=13	=13	=13	=13	=13	=13	=13	=13	=13	=13	=13	=13	=13	=13	=13
*	*	*	*	*	*Xtuplet	*	*	*	*	*	*	*	*	*	*	*	*	*
!	!	!	!	!	!	!	!	!	!	!	!	!	!	!	!LO:TX:a:t=1.	!	!LO:TX:a:t=1.	!
2GG/	6	2GG/	4r	.	12bb\L	f	0.r	.	0.r	.	0.r	.	0.r	.	2.r	.	2.r	.
.	.	.	.	.	12gg\	.	.	.	.	.	.	.	.	.	.	.	.	.
.	.	.	.	.	12dd#X\J	.	.	.	.	.	.	.	.	.	.	.	.	.
*	*	*	*	*	*tuplet	*	*	*	*	*	*	*	*	*	*	*	*	*
!	!	!	!	!	!LO:TX:a:t=P:problem: klamra łukowa	!	!	!	!	!	!	!	!	!	!	!	!	!
!	!	!	!	!	!LO:TUP:a	!	!	!	!	!	!	!	!	!	!	!	!	!
.	.	.	4b/	f	12ee\L	.	.	.	.	.	.	.	.	.	.	.	.	.
.	.	.	.	.	12ff#\	.	.	.	.	.	.	.	.	.	.	.	.	.
.	.	.	.	.	12gg\J	.	.	.	.	.	.	.	.	.	.	.	.	.
!	!	!	!	!	!LO:TX:a:t=P:problem: klamra łukowa	!	!	!	!	!	!	!	!	!	!	!	!	!
!	!	!	!	!	!LO:TUP:a	!	!	!	!	!	!	!	!	!	!	!	!	!
[4G\	.	[4G\	12b/L	.	12gg\L	.	.	.	.	.	.	.	.	.	.	.	.	.
.	.	.	12a/	.	12aa\	.	.	.	.	.	.	.	.	.	.	.	.	.
.	.	.	12g/J	.	12bb\J	.	.	.	.	.	.	.	.	.	.	.	.	.
=14	=14	=14	=14	=14	=14	=14	=14	=14	=14	=14	=14	=14	=14	=14	=14	=14	=14	=14
4G\]	4 2	4G\]	2c#/	.	4.a/	.	.	.	.	.	.	.	.	.	2a/	.	2ee\	.
8F#\L	.	8F#\L	.	.	.	.	.	.	.	.	.	.	.	.	.	.	.	.
8E\J	.	8E\J	.	.	(16b\LL	.	.	.	.	.	.	.	.	.	.	.	.	.
.	.	.	.	.	16cc#\JJ	.	.	.	.	.	.	.	.	.	.	.	.	.
!	!	!	!	!	!LO:LB:g=original	!	!	!	!	!	!	!	!	!	!	!	!	!
4F#\	6	4F#\	4a/	.	[4dd\)	.	.	.	.	.	.	.	.	.	8dd\L	.	8ff#\L	.
.	.	.	.	.	.	.	.	.	.	.	.	.	.	.	8ff#\J	.	8aa\J	.
!	!	!	!	!	!	!	!	!	!	!	!	!	!	!	!	!	!LO:LB:g=original	!
=15	=15	=15	=15	=15	=15	=15	=15	=15	=15	=15	=15	=15	=15	=15	=15	=15	=15	=15
*	*	*	*	*	*Xtuplet	*	*	*	*	*	*	*	*	*	*	*	*	*
!	!	!	!LO:TUP:a	!	!	!	!	!	!	!	!	!	!	!	!	!	!	!
4G\	6 5	4G\	12b\L	.	12dd\L]	.	.	.	.	.	.	.	.	.	4ee\	.	4gg\	.
.	.	.	12gg\	.	12bb\	.	.	.	.	.	.	.	.	.	.	.	.	.
.	.	.	12ee\J	.	12gg\J	.	.	.	.	.	.	.	.	.	.	.	.	.
4A\	6 4	4A\	4dd\	.	4ff#\	.	.	.	.	.	.	.	.	.	4dd\	.	4ff#\	.
4AA/	5 3	4AA/	4cc#t\	.	4eeT\	.	.	.	.	.	.	.	.	.	8a/L	.	8ee\L	.
.	.	.	.	.	.	.	.	.	.	.	.	.	.	.	8f#/J	.	8dd\J	.
=16	=16	=16	=16	=16	=16	=16	=16	=16	=16	=16	=16	=16	=16	=16	=16	=16	=16	=16
4D\	.	4D/	4dd\	.	4dd\	.	.	.	.	.	.	.	.	.	2f#/	.	2dd\	.
!LO:TX:b:t=tutti.	!	!LO:TX:b:t=Tutti.	!	!	!	!	!	!	!	!	!	!	!	!	!	!	!	!
8.d\L	.	8.d\L	4d/	.	4d/	.	.	.	.	.	.	.	.	.	.	.	.	.
16A\K	.	16A\K	.	.	.	.	.	.	.	.	.	.	.	.	.	.	.	.
8.F#\	.	8.F#\	4r	.	4r	.	.	.	.	.	.	.	.	.	4r	.	4r	.
16A\Jk	.	16A\Jk	.	.	.	.	.	.	.	.	.	.	.	.	.	.	.	.
=17	=17	=17	=17	=17	=17	=17	=17	=17	=17	=17	=17	=17	=17	=17	=17	=17	=17	=17
4D\	.	4D\	4f#/	.	4a/	.	4D/	Lau-	4d\	Lau-	4f#\	Lau-	4a\	Lau-	4f#/	.	4a/	.
4F#\	6	4F#\	8.a\L	.	8.dd\L	.	4F#\	-da	4d\	-da	4a\	-da	4dd\	-da	8.a\L	.	8.dd\L	.
.	.	.	16dd\K	.	16ff#\K	.	.	.	.	.	.	.	.	.	16dd\Jk	.	16ff#\Jk	.
4A\	7	4A\	8.cc#\	.	8.ee\	.	4A\	Je-	4c#\	Je-	4a\	Je-	4ee\	Je-	8.a\L	.	8.ee\L	.
.	.	.	16ee\Jk	.	16gg\Jk	.	.	.	.	.	.	.	.	.	16ee\Jk	.	16gg\Jk	.
=18	=18	=18	=18	=18	=18	=18	=18	=18	=18	=18	=18	=18	=18	=18	=18	=18	=18	=18
*	*	*	*	*	*tuplet	*	*	*	*	*	*	*	*	*	*	*	*	*
!	!	!	!LO:TX:a:t=P:problem: klamra łukowa	!	!LO:TX:a:t=P:problem: klamra łukowa	!	!	!	!	!	!	!	!	!	!	!	!	!
!	!	!	!LO:TUP:a	!	!LO:TUP:a	!	!	!	!	!	!	!	!	!	!	!	!	!
4d\|	.	4d\	12dd\L	.	12ff#\L	.	4.d\	-ru-	4.d\	-ru-	4.a\	-ru-	4.ff#\	-ru-	8dd\L	.	8ff#\L	.
.	.	.	12gg\	.	12bb\	.	.	.	.	.	.	.	.	.	.	.	.	.
.	.	.	.	.	.	.	.	.	.	.	.	.	.	.	8ee\J	.	8gg\J	.
.	.	.	12ff#\J	.	12aa\J	.	.	.	.	.	.	.	.	.	.	.	.	.
.	.	.	8qqgg/	.	.	.	.	.	.	.	.	.	.	.	.	.	.	.
8r	.	8r	2ff#\	.	2aaT\	.	.	.	.	.	.	.	.	.	2ff#\	.	2aa\	.
8d\L|	.	8d\L|	.	.	.	.	8d\	-sa-	8d\	-sa-	8a\	-sa-	8ff#\	-sa-	.	.	.	.
8A\|	.	8A\|	.	.	.	.	4d\	-lem	4d\	-lem	4a\	-lem	4ff#\	-lem	.	.	.	.
8F#\J|	.	8F#\J|	.	.	.	.	.	.	.	.	.	.	.	.	.	.	.	.
=19	=19	=19	=19	=19	=19	=19	=19	=19	=19	=19	=19	=19	=19	=19	=19	=19	=19	=19
*	*	*	*	*	*	*	*	*	*2\right	*	*	*	*	*	*	*	*	*
4D\	.	4D\	4f#/	.	4a/	.	(4D/	lau-	2d\	lau-	(4f#\	lau-	(4a\	lau-	4f#/	.	4a/	.
4F#\	6	4F#\	8.a\L	.	8.dd\L	.	4F#\)	.	.	.	4a\)	.	4dd\)	.	8.a\L	.	8.dd\L	.
.	.	.	16dd\Jk	.	16ff#\K	.	.	.	.	.	.	.	.	.	16dd\Jk	.	16ff#\Jk	.
4A\	7	4A\	8.cc#\L	.	8.ee\	.	4A\	-da	4c#\	-da	4a\	-da	4ee\	-da	8.a\L	.	8.ee\L	.
.	.	.	16ee\Jk	.	16gg\Jk	.	.	.	.	.	.	.	.	.	16ee\Jk	.	16gg\Jk	.
!LO:LB:g=original	!	!LO:LB:g=original	!LO:LB:g=original	!	!	!	!	!	!	!	!	!	!	!	!	!	!	!
=20	=20	=20	=20	=20	=20	=20	=20	=20	=20	=20	=20	=20	=20	=20	=20	=20	=20	=20
.	.	.	.	.	8qqgg/	.	.	.	.	.	.	.	.	.	.	.	.	.
4d\	.	4d\	(4ee\	.	(4.ff#\	.	4.d\	Do-	4.d\	Do-	4.a\	Do-	4.ff#\	Do-	4ee\	.	2ff#\	.
4D\	.	4D/	4dd\)	.	.	.	.	.	.	.	.	.	.	.	4dd\	.	.	.
.	.	.	.	.	16gg#X\LL	.	8d\	-mi-	8d\	-mi-	8a\	-mi-	8ff#\	-mi-	.	.	.	.
.	.	.	.	.	16aa\JJ)	.	.	.	.	.	.	.	.	.	.	.	.	.
.	.	.	.	.	8qqff#/	.	.	.	.	.	.	.	.	.	.	.	.	.
4A\	.	4A\	4cc#\|	.	4ee\	.	4A\	-num	4c#\	-num	4a\	-num	4ee\	-num	4a/	.	4ee\	.
=21	=21	=21	=21	=21	=21	=21	=21	=21	=21	=21	=21	=21	=21	=21	=21	=21	=21	=21
*	*	*	*	*	*	*	*2\right	*	*	*	*	*	*	*	*	*	*	*
!	!	!	!	!	!	!	!	!	!	!	!	!	!	!	!LO:TX:a:t=2.	!	!LO:TX:a:t=2.	!
2B\	6	2B\	2dd\	.	(4ggn\	.	2B\	lau-	2d\	lau-	4r	.	(4gg\	lau-	1.r	.	1.r	.
.	6| 4| 3	.	.	.	4ee#X\	.	.	.	.	.	4g#X\	lau-	4ee#X\)	.	.	.	.	.
4A\	6	4A\	4cc#\	.	4ff#\)|	.	4A\	-da	4c#\	-da	4a\	-da	4ff#\|	-da	.	.	.	.
=22	=22	=22	=22	=22	=22	=22	=22	=22	=22	=22	=22	=22	=22	=22	=22	=22	=22	=22
2G\	6	2G\	2b/	.	(4een\	.	2G\	De-	2B\	De-	4r	.	(4een\	De-	.	.	.	.
.	4 3	.	.	.	4cc#\)	.	.	.	.	.	4e\	De-	4cc#\)	.	.	.	.	.
4F#\	6	4F#\	4a/	.	4dd\|	.	4F#\	-um	4A/	-um	4f#\	-um	4dd\|	-um	.	.	.	.
!	!	!	!	!	!	!	!LO:LB:g=original	!	!	!	!	!	!	!	!	!	!	!
=23	=23	=23	=23	=23	=23	=23	=23	=23	=23	=23	=23	=23	=23	=23	=23	=23	=23	=23
4E\	6	4E\	(4g/	.	8.cc#\L	.	4E\	tu-	4G/	tu-	4a\	tu-	8.cc#\L	tu-	4gg\	.	4ccc#\	.
.	.	.	.	.	16dd\Jk	.	.	.	.	.	.	.	16dd\Jk	.	.	.	.	.
.	.	.	.	.	8qqee/	.	.	.	.	.	.	.	.	.	.	.	.	.
*	*	*	*	*	*	*	*	*	*	*	*2\right	*	*2\right	*	*	*	*	*
8.D\L	.	8.D\L	4f#/)	.	2ddT\	.	2D/	-um	2F#/	-um	2a\	-um	2dd\	-u[[m]]	2ff#\	.	2ddd\	.
16A\K	.	16A\K	.	.	.	.	.	.	.	.	.	.	.	.	.	.	.	.
8.F#\	.	8.F#\	4dd\|	.	.	.	.	.	.	.	.	.	.	.	.	.	.	.
16D\Jk	.	16D\Jk	.	.	.	.	.	.	.	.	.	.	.	.	.	.	.	.
!	!	!	!	!	!LO:LB:g=original	!	!	!	!	!	!LO:LB:g=original	!	!LO:LB:g=original	!	!	!	!	!
=24	=24	=24	=24	=24	=24	=24	=24	=24	=24	=24	=24	=24	=24	=24	=24	=24	=24	=24
!	!	!	!	!	!LO:TX:a:t=P:problem: klamra łukowa	!	!	!	!	!	!	!	!	!	!	!	!	!
!	!	!	!	!	!LO:TUP:a	!	!	!	!	!	!	!	!	!	!	!	!	!
4.AA/	.	4.AA/	4cc#\	.	12ee\L	.	4A\	Si-	4c#\	Si-	4a\	Si-	4ee\	Si-	2ee\	.	2ccc#\	.
.	.	.	.	.	12gg#X\	.	.	.	.	.	.	.	.	.	.	.	.	.
.	.	.	.	.	12aa\J	.	.	.	.	.	.	.	.	.	.	.	.	.
.	.	.	.	.	8qqb/	.	.	.	.	.	.	.	.	.	.	.	.	.
.	.	.	4c#/	.	4a/	.	4AA/	-on	4c#\	-on	4a\	-on	4a\	-on	.	.	.	.
8F#\L|	.	8F#\L|	.	.	.	.	.	.	.	.	.	.	.	.	.	.	.	.
8E\|	.	8E\|	4r	.	4r	.	4r	.	4r	.	4r	.	4r	.	4r	.	4r	.
8D\J|	.	8D\J|	.	.	.	.	.	.	.	.	.	.	.	.	.	.	.	.
!	!	!	!	!	!	!	!	!	!LO:LB:g=original	!	!	!	!	!	!	!	!	!
=25	=25	=25	=25	=25	=25	=25	=25	=25	=25	=25	=25	=25	=25	=25	=25	=25	=25	=25
!	!	!	!	!	!LO:TX:a:t=P:problem: klamra łukowa	!	!LO:TX:a:t=2.	!	!LO:TX:a:t=1.	!	!	!	!	!	!	!	!	!
!	!	!	!	!	!LO:TUP:a	!	!	!	!	!	!	!	!	!	!	!	!	!
2C#/	6	2C#/	4r	.	12a\L	.	1.r	.	2.r	.	4r	.	4.ee\	quo-	4r	.	4r	.
.	.	.	.	.	12b\	.	.	.	.	.	.	.	.	.	.	.	.	.
.	.	.	.	.	12cc#\J	.	.	.	.	.	.	.	.	.	.	.	.	.
*	*	*	*	*	*Xtuplet	*	*	*	*	*	*	*	*	*	*	*	*	*
!	!	!	!LO:TX:a:t=P:problem: klamra łukowa	!	!LO:TX:a:t=P:problem: klamra łukowa	!	!	!	!	!	!	!	!	!	!	!	!	!
!	!	!	!LO:TUP:a	!	!	!	!	!	!	!	!	!	!	!	!	!	!	!
.	.	.	12a\L	.	12cc#\L	.	.	.	.	.	4r	.	.	.	8a/L	.	8a/L	.
.	.	.	12b\	.	12dd\	.	.	.	.	.	.	.	.	.	.	.	.	.
.	.	.	.	.	.	.	.	.	.	.	.	.	8ee\	-ni-	8a/	.	8a/	.
.	.	.	12cc#\J	.	12ee\J	.	.	.	.	.	.	.	.	.	.	.	.	.
!	!	!	!LO:TX:a:t=P:problem: klamra łukowa	!	!LO:TX:a:t=P:problem: klamra łukowa	!	!	!	!	!	!	!	!	!	!	!	!	!
!	!	!	!LO:TUP:a	!	!	!	!	!	!	!	!	!	!	!	!	!	!	!
4AA/	7	4AA/	12cc#\L	.	12ee\L	.	.	.	.	.	4e\	qui	4cc#\	-am	8a/	.	8a/	.
.	.	.	12dd\	.	12ff#\	.	.	.	.	.	.	.	.	.	.	.	.	.
.	.	.	.	.	.	.	.	.	.	.	.	.	.	.	8a/J	.	8a/J	.
.	.	.	12ee\J	.	12ggn\J	.	.	.	.	.	.	.	.	.	.	.	.	.
=26	=26	=26	=26	=26	=26	=26	=26	=26	=26	=26	=26	=26	=26	=26	=26	=26	=26	=26
4D/	.	4D/	4dd\	.	12ff#\L	.	.	.	4r	.	4.f#\	po-	2a\	con-	4f#/	.	4a/	.
.	.	.	.	.	12aa\	.	.	.	.	.	.	.	.	.	.	.	.	.
.	.	.	.	.	12gg\J	.	.	.	.	.	.	.	.	.	.	.	.	.
4D/	.	4D/	2a/	.	12ff#\L	.	.	.	4A/	qui	.	.	.	.	4r	.	4r	.
.	.	.	.	.	12ee\	.	.	.	.	.	.	.	.	.	.	.	.	.
.	.	.	.	.	.	.	.	.	.	.	8f#\	-su-	.	.	.	.	.	.
.	.	.	.	.	12dd\J	.	.	.	.	.	.	.	.	.	.	.	.	.
4D/	.	4D/	.	.	12cc#\L	.	.	.	4A/	e-	4f#\	-it	4a\	-for-	4r	.	4r	.
.	.	.	.	.	12b\	.	.	.	.	.	.	.	.	.	.	.	.	.
.	.	.	.	.	12a\J	.	.	.	.	.	.	.	.	.	.	.	.	.
!	!	!	!	!	!	!	!	!	!	!	!	!	!	!	!LO:LB:g=original	!	!	!
=27	=27	=27	=27	=27	=27	=27	=27	=27	=27	=27	=27	=27	=27	=27	=27	=27	=27	=27
*	*	*	*Xtuplet	*	*	*	*	*	*	*	*	*	*	*	*	*	*	*
4DD/	6	4DD/	12b\L	.	4ff#\	.	2D/	qui	4d\	-mit-	4.f#\	fi-	4b\	-ta-	4d/	.	4f#/	.
.	.	.	12dd\	.	.	.	.	.	.	.	.	.	.	.	.	.	.	.
.	.	.	12cc#\J	.	.	.	.	.	.	.	.	.	.	.	.	.	.	.
4DD/	.	4DD/	12b/L	.	2ff#t\	.	.	.	4.d\	-tit	.	.	2b\	-vit	4r	.	4r	.
.	.	.	12a/	.	.	.	.	.	.	.	.	.	.	.	.	.	.	.
.	.	.	.	.	.	.	.	.	.	.	8f#\	-nes	.	.	.	.	.	.
.	.	.	12g#X/J	.	.	.	.	.	.	.	.	.	.	.	.	.	.	.
4DD/	.	4DD/	12f#/L	.	.	.	4D/	dat	.	.	8f#\	tu-	.	.	4r	.	4r	.
.	.	.	12e/	.	.	.	.	.	.	.	.	.	.	.	.	.	.	.
.	.	.	.	.	.	.	.	.	8d\	e-	8f#\	-os	.	.	.	.	.	.
.	.	.	12d/J	.	.	.	.	.	.	.	.	.	.	.	.	.	.	.
=28	=28	=28	=28	=28	=28	=28	=28	=28	=28	=28	=28	=28	=28	=28	=28	=28	=28	=28
!	!	!	!	!	!	!	!	!	!	!	!	!	!	!	!LO:TX:a:t=6.	!	!LO:TX:a:t=6.	!
4EE/	5 #	4EE/	4b\	.	12gg#X\L	.	2E\	ni-	4.B\	-lo-	4g#X\	pa-	4b\	se-	0.r	.	0.r	.
.	.	.	.	.	12bb\	.	.	.	.	.	.	.	.	.	.	.	.	.
.	.	.	.	.	12aa\J	.	.	.	.	.	.	.	.	.	.	.	.	.
4EE/	.	4EE/	2b\	.	12gg#X\L	.	.	.	.	.	2g#\	-cem	4b\	-ras	.	.	.	.
.	.	.	.	.	12ff#\	.	.	.	.	.	.	.	.	.	.	.	.	.
.	.	.	.	.	.	.	.	.	8B\	-qui-	.	.	.	.	.	.	.	.
.	.	.	.	.	12ee\J	.	.	.	.	.	.	.	.	.	.	.	.	.
4EE/	.	4EE/	.	.	12dd\L	.	4E\	-vem	4B\	-um	.	.	4b\	por-	.	.	.	.
.	.	.	.	.	12cc#\	.	.	.	.	.	.	.	.	.	.	.	.	.
.	.	.	.	.	12b\J	.	.	.	.	.	.	.	.	.	.	.	.	.
=29	=29	=29	=29	=29	=29	=29	=29	=29	=29	=29	=29	=29	=29	=29	=29	=29	=29	=29
4E\	6 #	4E\	12cc#\L	.	4gg#X\	.	2E\	si-	4e\	su-	4g#X\	et	4cc#\	-ta-	.	.	.	.
.	.	.	12ee\	.	.	.	.	.	.	.	.	.	.	.	.	.	.	.
.	.	.	12dd\J	.	.	.	.	.	.	.	.	.	.	.	.	.	.	.
4E\	.	4E\	12cc#\L	.	2gg#t\	.	.	.	2e\	-um	8g#\	a-	4.cc#\	-rum	.	.	.	.
.	.	.	12b\	.	.	.	.	.	.	.	.	.	.	.	.	.	.	.
.	.	.	.	.	.	.	.	.	.	.	8g#\	-di-	.	.	.	.	.	.
.	.	.	12a\J	.	.	.	.	.	.	.	.	.	.	.	.	.	.	.
4E\	.	4E\	12g#X/L	.	.	.	4E\	-cut	.	.	8g#\	-pe	.	.	.	.	.	.
.	.	.	12f#/	.	.	.	.	.	.	.	.	.	.	.	.	.	.	.
.	.	.	.	.	.	.	.	.	.	.	8g#\	fru-	8cc#\	tu-	.	.	.	.
.	.	.	12e/J	.	.	.	.	.	.	.	.	.	.	.	.	.	.	.
!	!	!	!LO:LB:g=original	!	!	!	!	!	!	!	!	!	!	!	!	!	!	!
=30	=30	=30	=30	=30	=30	=30	=30	=30	=30	=30	=30	=30	=30	=30	=30	=30	=30	=30
4F#\	5	4F#\	4cc#\	.	12aa\L	.	2F#\	la-	4c#\	ter-	2a\	-men-	4cc#\	-a-	.	.	.	.
.	.	.	.	.	12ccc#\	.	.	.	.	.	.	.	.	.	.	.	.	.
.	.	.	.	.	12bb\J	.	.	.	.	.	.	.	.	.	.	.	.	.
4F#\	.	4F#\	2cc#\	.	12aa\L	.	.	.	4c#\	-rae	.	.	4cc#\	-r(um)	.	.	.	.
.	.	.	.	.	12gg#X\	.	.	.	.	.	.	.	.	.	.	.	.	.
.	.	.	.	.	12ff#\J	.	.	.	.	.	.	.	.	.	.	.	.	.
4F#\	.	4F#\	.	.	12ee\L	.	4F#\	-nam	4c#\	ve-	4a\	-ti	8cc#\	be-	.	.	.	.
.	.	.	.	.	12dd\	.	.	.	.	.	.	.	.	.	.	.	.	.
.	.	.	.	.	.	.	.	.	.	.	.	.	8cc#\	-ne-	.	.	.	.
.	.	.	.	.	12cc#\J	.	.	.	.	.	.	.	.	.	.	.	.	.
!LO:LB:g=original	!	!	!	!	!LO:LB:g=original	!	!	!	!	!	!	!	!	!	!	!	!	!
=31	=31	=31	=31	=31	=31	=31	=31	=31	=31	=31	=31	=31	=31	=31	=31	=31	=31	=31
4FF#/	6	4FF#/	12dd\L	.	4aa\	.	4.F#\	ne-	4.f#\	-lo-	4.a\	sa-	4dd\	-di-	.	.	.	.
.	.	.	12ff#\	.	.	.	.	.	.	.	.	.	.	.	.	.	.	.
.	.	.	12ee\J	.	.	.	.	.	.	.	.	.	.	.	.	.	.	.
4FF#/	.	4FF#/	12dd\L	.	2aaT\	.	.	.	.	.	.	.	2dd\	-xit	.	.	.	.
.	.	.	12cc#\	.	.	.	.	.	.	.	.	.	.	.	.	.	.	.
.	.	.	.	.	.	.	8F#\	-bu-	8f#\	-ci-	8a\	-ti-	.	.	.	.	.	.
.	.	.	12b\J	.	.	.	.	.	.	.	.	.	.	.	.	.	.	.
4FF#/	.	4FF#/	12a/L	.	.	.	4F#\	-lam	4f#\	-ter	4a\	-at	.	.	.	.	.	.
.	.	.	12g#X/	.	.	.	.	.	.	.	.	.	.	.	.	.	.	.
.	.	.	12f#/J	.	.	.	.	.	.	.	.	.	.	.	.	.	.	.
!	!	!	!	!	!	!	!	!	!	!	!LO:LB:g=original	!	!	!	!	!	!	!
=32	=32	=32	=32	=32	=32	=32	=32	=32	=32	=32	=32	=32	=32	=32	=32	=32	=32	=32
4GG#X/	5	4GG#X/	4dd\	.	12bb\L	.	2G#X\	si-	4.d\	cur-	2.b\	te	8dd\	fi-	1.r	.	1.r	.
.	.	.	.	.	12ddd\	.	.	.	.	.	.	.	.	.	.	.	.	.
.	.	.	.	.	.	.	.	.	.	.	.	.	8dd\	-li-	.	.	.	.
.	.	.	.	.	12ccc#\J	.	.	.	.	.	.	.	.	.	.	.	.	.
4GG#/	.	4GG#/	2dd\	.	12bb\L	.	.	.	.	.	.	.	4dd\	-j[[s]]	.	.	.	.
.	.	.	.	.	12aa\	.	.	.	.	.	.	.	.	.	.	.	.	.
.	.	.	.	.	.	.	.	.	8d\	-rit	.	.	.	.	.	.	.	.
.	.	.	.	.	12gg#X\J	.	.	.	.	.	.	.	.	.	.	.	.	.
!	!	!	!	!	!	!	!	!	!	!	!	!	!LO:LB:g=original	!	!	!	!	!
4GG#/	.	4GG#/	.	.	12ff#\L	.	4G#\	-cut	8d\	ser-	.	.	8dd\	tu-	.	.	.	.
.	.	.	.	.	12ee\	.	.	.	.	.	.	.	.	.	.	.	.	.
.	.	.	.	.	.	.	.	.	8d\	-mo	.	.	8dd\	-is	.	.	.	.
.	.	.	.	.	12dd\J	.	.	.	.	.	.	.	.	.	.	.	.	.
!	!	!LO:LB:g=original	!	!	!	!	!LO:LB:g=original	!	!	!	!	!	!	!	!	!	!	!
=33	=33	=33	=33	=33	=33	=33	=33	=33	=33	=33	=33	=33	=33	=33	=33	=33	=33	=33
4G#X\	6	4G#X\	12ee\L	.	4bb\	.	4.G#X\	ci-	2d\	e-	4.b\	sa-	4ee\	in-	.	.	.	.
.	.	.	12gg#X\	.	.	.	.	.	.	.	.	.	.	.	.	.	.	.
.	.	.	12ff#\J	.	.	.	.	.	.	.	.	.	.	.	.	.	.	.
4G#\	.	4G#\	12ee\L	.	2bbT\	.	.	.	.	.	.	.	2ee\	-te	.	.	.	.
.	.	.	12dd\	.	.	.	.	.	.	.	.	.	.	.	.	.	.	.
.	.	.	.	.	.	.	8G#\	-ne-	.	.	8b\	-ti-	.	.	.	.	.	.
.	.	.	12cc#\J	.	.	.	.	.	.	.	.	.	.	.	.	.	.	.
4G#\	.	4G#\	12b/L	.	.	.	4G#\	-rem	4d\	-jus	4b\	-at	.	.	.	.	.	.
.	.	.	12a/	.	.	.	.	.	.	.	.	.	.	.	.	.	.	.
.	.	.	12g#X/J	.	.	.	.	.	.	.	.	.	.	.	.	.	.	.
=34	=34	=34	=34	=34	=34	=34	=34	=34	=34	=34	=34	=34	=34	=34	=34	=34	=34	=34
!	!	!	!	!	!	!	!	!	!LO:TX:a:t=1.	!	!LO:TX:a:t=1.	!	!LO:TX:a:t=1.	!	!	!	!	!
4A\	.	4A\	4ee\|	.	4ccc#\	.	(4A\	si-	2.r	.	2.r	.	2.r	.	4a/	.	[2.ee\	.
*	*	*	*tuplet	*	*	*	*	*	*	*	*	*	*	*	*	*	*	*
!	!	!	!LO:TX:a:t=P:problem: klamra łukowa	!	!LO:TX:a:t=P:problem: klamra łukowa	!	!	!	!	!	!	!	!	!	!	!	!	!
!	!	!	!LO:TUP:a	!	!	!	!	!	!	!	!	!	!	!	!	!	!	!
4c#\	6	4c#\	12cc#\L	.	12ee\L	.	4c#\)	.	.	.	.	.	.	.	4r	.	.	.
.	.	.	12b\	.	12dd\	.	.	.	.	.	.	.	.	.	.	.	.	.
.	.	.	12a\J	.	12cc#\J	.	.	.	.	.	.	.	.	.	.	.	.	.
!	!	!	!	!	!LO:TX:a:t=P:problem: klamra łukowa	!	!	!	!	!	!	!	!	!	!	!	!	!
4e\	#	4e\	12b/L	.	12dd\L	.	4e\	-cut	.	.	.	.	.	.	4ee\	.	.	.
.	.	.	12a/	.	12cc#\	.	.	.	.	.	.	.	.	.	.	.	.	.
.	.	.	12g#X/J	.	12b\J	.	.	.	.	.	.	.	.	.	.	.	.	.
!	!	!	!	!	!	!	!	!	!LO:LB:g=original	!	!	!	!	!	!	!	!	!
=35	=35	=35	=35	=35	=35	=35	=35	=35	=35	=35	=35	=35	=35	=35	=35	=35	=35	=35
4AA/	.	4AA/	4ee\|	.	4ccc#\	.	(>4AA/	ci-	4.e\	ci-	4.cc#\	ci-	4.ee\	ci-	4a/	.	2.ee\]	.
!	!	!	!LO:TX:a:t=P:problem: klamra łukowa	!	!LO:TX:a:t=P:problem: klamra łukowa	!	!	!	!	!	!	!	!	!	!	!	!	!
!	!	!	!LO:TUP:a	!	!	!	!	!	!	!	!	!	!	!	!	!	!	!
4C#/	6	4C#/	12cc#\L	.	12ee\L	.	8C#/)	.	.	.	.	.	.	.	4r	.	.	.
.	.	.	12b\	.	12dd\	.	.	.	.	.	.	.	.	.	.	.	.	.
.	.	.	.	.	.	.	8C#/	-ne-	8e\	-ne-	8cc#\	-ne-	8ee\	-ne-	.	.	.	.
.	.	.	12a\J	.	12cc#\J	.	.	.	.	.	.	.	.	.	.	.	.	.
!	!	!	!	!	!LO:TX:a:t=P:problem: klamra łukowa	!	!	!	!	!	!	!	!	!	!	!	!	!
4E\	7 #	4E/	12b/L	.	12dd\L	.	4E\	-rem	4e\	-rem	4b\	-rem	4dd\	-rem	4ee\	.	.	.
.	.	.	12a/	.	12cc#\	.	.	.	.	.	.	.	.	.	.	.	.	.
.	.	.	12g#X/J	.	12b\J	.	.	.	.	.	.	.	.	.	.	.	.	.
!	!	!	!	!	!	!	!	!	!	!	!	!	!	!	!	!	!LO:LB:g=original	!
=36	=36	=36	=36	=36	=36	=36	=36	=36	=36	=36	=36	=36	=36	=36	=36	=36	=36	=36
!	!	!	!	!	!LO:TX:a:t=P:problem: klamra łukowa	!	!	!	!	!	!	!	!	!	!	!	!	!
4A\	.	4A\	4a/	.	12cc#\L	.	4A\	spar-	2.e\	spar-	4a\	spar-	4cc#\	spar-	4a/	.	4ee\	.
.	.	.	.	.	12b\	.	.	.	.	.	.	.	.	.	.	.	.	.
.	.	.	.	.	12a\J	.	.	.	.	.	.	.	.	.	.	.	.	.
4E\	#	4E\	2g#Xt/	.	2bT\	.	(4E\	.	.	.	2g#X\	.	2bT\	.	2ee\	.	2gg#X\	.
4D/	4 2	4D\	.	.	.	.	4D/)	.	.	.	.	.	.	.	.	.	.	.
=37	=37	=37	=37	=37	=37	=37	=37	=37	=37	=37	=37	=37	=37	=37	=37	=37	=37	=37
!	!	!	!	!	!LO:TX:a:t=P:problem:mixed beam	!	!	!	!	!	!	!	!	!	!	!	!	!
4C#/	6	4C#/	2.e/	.	8a/L|	.	4C#/	-git	4e\	-git	4a\	-git	4a\	-git	4a/	.	4aa\	.
.	.	.	.	.	(8aa\	.	.	.	.	.	.	.	.	.	.	.	.	.
4C#/	.	4C#/	.	.	8gg#X\	.	4r	.	4r	.	4a\	mit-	4a\	mit-	4r	.	4r	.
.	.	.	.	.	8aa\	.	.	.	.	.	.	.	.	.	.	.	.	.
4C#/	.	4C#/	.	.	8gg#\	.	4r	.	4r	.	8a\	-tit	8a\	-tit	4r	.	4r	.
.	.	.	.	.	8aa\J)	.	.	.	.	.	8a\	crys-	8a\	crys-	.	.	.	.
=38	=38	=38	=38	=38	=38	=38	=38	=38	=38	=38	=38	=38	=38	=38	=38	=38	=38	=38
4D/	6 5	4D/	2.f#/	.	8b\L|	.	2D/	an-	2f#\	an-	4.a\	-ta-	4.b\	-tal-	4a/	.	4a/	.
.	.	.	.	.	(8aa\	.	.	.	.	.	.	.	.	.	.	.	.	.
4D/	.	4D/	.	.	8gg#X\	.	.	.	.	.	.	.	.	.	4r	.	4r	.
.	.	.	.	.	8aa\	.	.	.	.	.	8a\	-lum	8b\	-lum	.	.	.	.
4D/	.	4D/	.	.	8gg#\	.	4D/	-te	4f#\	-te	8a\	su-	8b\	su-	4r	.	4r	.
.	.	.	.	.	8aa\J)	.	.	.	.	.	8a\	-am	8b\	-am	.	.	.	.
!	!	!	!	!	!LO:LB:g=original	!	!	!	!	!	!	!	!	!	!	!	!	!
=39	=39	=39	=39	=39	=39	=39	=39	=39	=39	=39	=39	=39	=39	=39	=39	=39	=39	=39
4E\	6 4	4E\	8r	.	8cc#\L|	.	4.E\	fa-	4.e\	fa-	4a\	si-	4cc#\	si-	4a/	.	4a/	.
.	.	.	(8cc#\L	.	(8aa\	.	.	.	.	.	.	.	.	.	.	.	.	.
4E\	.	4E\	8b\	.	8gg#X\	.	.	.	.	.	4a\	-cut	4cc#\	-cut	4r	.	4r	.
.	.	.	8cc#\	.	8aa\	.	8E\	-ci-	8e\	-ci-	.	.	.	.	.	.	.	.
4E\	.	4E\	8b\	.	8gg#\	.	4E\	-em	4e\	-em	4a\	buc-	4cc#\	buc-	4r	.	4r	.
.	.	.	8cc#\J)	.	8aa\J)	.	.	.	.	.	.	.	.	.	.	.	.	.
!	!	!	!LO:LB:g=original	!	!	!	!	!	!	!	!	!	!	!	!	!	!	!
=40	=40	=40	=40	=40	=40	=40	=40	=40	=40	=40	=40	=40	=40	=40	=40	=40	=40	=40
4F#\	6	4F#\	2.dd\	.	8dd\L|	.	2F#\	e-	2d\	e-	2a\	-cel-	2dd\	-cel-	4a/	.	4a/	.
.	.	.	.	.	(8aa\	.	.	.	.	.	.	.	.	.	.	.	.	.
4F#\	.	4F#\	.	.	8gg#X\	.	.	.	.	.	.	.	.	.	4r	.	4r	.
.	.	.	.	.	8aa\	.	.	.	.	.	.	.	.	.	.	.	.	.
4F#\	.	4F#\	.	.	8gg#\	.	4F#\	-jus	4d\	-jus	4a\	-las	4dd\	-las	4r	.	4r	.
.	.	.	.	.	8aa\J)	.	.	.	.	.	.	.	.	.	.	.	.	.
!LO:LB:g=original	!	!	!	!	!	!	!	!	!	!	!	!	!LO:LB:g=original	!	!	!	!	!
=41	=41	=41	=41	=41	=41	=41	=41	=41	=41	=41	=41	=41	=41	=41	=41	=41	=41	=41
!	!	!	!	!	!	!	!	!	!	!	!LO:TX:a:t=1.	!	!LO:TX:a:t=1.	!	!LO:TX:a:t=3.	!	!LO:TX:a:t=3.	!
4Fn\	6|	4Fn\	2.dd#X\	.	8dd#X\L|	.	4.Fn\	fri-	4.A/	fri-	2.r	.	2.r	.	1.r	.	1.r	.
.	.	.	.	.	(8aa\	.	.	.	.	.	.	.	.	.	.	.	.	.
4F\	.	4F\	.	.	8gg#X\	.	.	.	.	.	.	.	.	.	.	.	.	.
.	.	.	.	.	8aa\	.	8F\	-go-	8A/	-go-	.	.	.	.	.	.	.	.
4F\	.	4F\	.	.	8gg#\	.	4F\	-ris	4A/	-ris	.	.	.	.	.	.	.	.
.	.	.	.	.	8aa\J)	.	.	.	.	.	.	.	.	.	.	.	.	.
!	!	!	!	!	!	!	!	!	!	!	!LO:LB:g=original	!	!	!	!	!	!	!
=42	=42	=42	=42	=42	=42	=42	=42	=42	=42	=42	=42	=42	=42	=42	=42	=42	=42	=42
!	!	!	!LO:TX:a:t=P:problem: klamra łukowa	!	!LO:TX:a:t=P:problem: klamra łukowa	!	!	!	!	!	!	!	!	!	!	!	!	!
!	!	!	!LO:TUP:a	!	!	!	!	!	!	!	!	!	!	!	!	!	!	!
4E\	#	4E\	12ee\L	.	12gg#X\L	.	4E\	quis	4B\	quis	4g#X\	quis	4ee\	quis	.	.	.	.
.	.	.	12ff#\	.	12aa\	.	.	.	.	.	.	.	.	.	.	.	.	.
.	.	.	12gg#X\J	.	12bb\J	.	.	.	.	.	.	.	.	.	.	.	.	.
4G#X\	6 5	4G#X\	(4.b/	.	(4.dd\	.	4r	.	4r	.	4r	.	4r	.	.	.	.	.
!	!	!	!	!	!	!	!	!	!LO:TX:b:t=Volti	!	!	!	!	!	!	!	!	!
4A\	.	4A\	.	.	.	.	4r	.	4r	.	4r	.	4r	.	.	.	.	.
.	.	.	8a/)	.	8cc#\)	.	.	.	.	.	.	.	.	.	.	.	.	.
!	!	!LO:LB:g=original	!	!	!	!	!	!	!LO:PB:g=original	!	!	!	!	!	!	!	!	!
=43	=43	=43	=43	=43	=43	=43	=43	=43	=43	=43	=43	=43	=43	=43	=43	=43	=43	=43
!	!	!	!LO:TX:a:t=P:problem: klamra łukowa	!	!LO:TX:a:t=P:problem: klamra łukowa	!	!	!	!	!	!	!	!	!	!	!	!	!
!	!	!	!LO:TUP:a	!	!	!	!	!	!	!	!	!	!	!	!	!	!	!
4r	.	4r	12ee\L	.	12gg#X\L	.	4r	.	4r	.	4r	.	4r	.	2.r	.	2.r	.
.	.	.	12ff#\	.	12aa\	.	.	.	.	.	.	.	.	.	.	.	.	.
.	.	.	12gg#X\J	.	12bb\J	.	.	.	.	.	.	.	.	.	.	.	.	.
4G#X\	6 5	4G#X\	(4.b/	.	4.dd\	.	4G#X\	sus-	4B\	sus-	4e\	sus-	4dd\	sus-	.	.	.	.
4A\	.	4A\	.	.	.	.	4A\	-ti-	4A/	-ti-	4e\	-ti-	4cc#\	-ti-	.	.	.	.
.	.	.	8a/)	.	8cc#\	.	.	.	.	.	.	.	.	.	.	.	.	.
=44	=44	=44	=44	=44	=44	=44	=44	=44	=44	=44	=44	=44	=44	=44	=44	=44	=44	=44
*	*	*	*	*	*tuplet	*	*	*	*	*	*	*	*	*	*	*	*	*
!	!	!	!	!	!LO:TUP:a	!	!	!	!	!	!	!	!	!	!	!	!	!
!	!	!	!	!	!LO:TX:a:t=P:problem: klamra łukowa	!	!	!	!	!	!	!	!	!	!	!	!	!
4D\	.	4D\	8a/L	.	12dd\L	.	4D/	-ne-	4A/	-ne-	4f#\	-ne-	4dd\	-ne-	4ff#\	.	8aa\L	.
.	.	.	.	.	12cc#\	.	.	.	.	.	.	.	.	.	.	.	.	.
.	.	.	8f#/J	.	.	.	.	.	.	.	.	.	.	.	.	.	8ff#\J	.
.	.	.	.	.	12b\J	.	.	.	.	.	.	.	.	.	.	.	.	.
.	.	.	.	.	8qqcc#/	.	.	.	.	.	.	.	8qqcc#/	.	.	.	.	.
2E\	#	2E\	2g#Xt/	.	2bT\	.	2E\	.	2e\	.	2g#X\	.	2bT\	.	2ee\	.	2gg#Xt\	.
=45	=45	=45	=45	=45	=45	=45	=45	=45	=45	=45	=45	=45	=45	=45	=45	=45	=45	=45
4F#\	.	4F#\	4a/	.	4a/	.	4F#\	-bit	4c#\	-bit	4a\	-bit	4a\	-bit	4ee\	.	4aa\	.
4r	.	4r	4r	.	4r	.	2G#X\	quis	2f#\	quis	2b\	quis	2dd\	quis	4r	.	4r	.
4G#X\	7 5	4G#X\	4r	.	4r	.	.	.	.	.	.	.	.	.	4r	.	4r	.
=46	=46	=46	=46	=46	=46	=46	=46	=46	=46	=46	=46	=46	=46	=46	=46	=46	=46	=46
!	!	!	!LO:TX:a:t=2.	!	!LO:TX:a:t=2.	!	!	!	!	!	!	!	!	!	!LO:TX:a:t=2.	!	!LO:TX:a:t=2.	!
4AA/	.	4AA/	1.r	.	1.r	.	(4A\	sus-	(4e\	sus-	2a\	sus-	(4cc#\	sus-	1.r	.	1.r	.
4BB/	7	4BB/	.	.	.	.	4B\)	.	4d\)	.	.	.	4b\)	.	.	.	.	.
4C#/	6	4C#/	.	.	.	.	4c#\	-ti-	4c#\	-ti-	4a\	-ti-	4a\	-ti-	.	.	.	.
=47	=47	=47	=47	=47	=47	=47	=47	=47	=47	=47	=47	=47	=47	=47	=47	=47	=47	=47
4D/	6 5	4D/	.	.	.	.	4D/	-ne-	2B\	-ne-	4a\	-ne-	(8ff#\L	-ne-	.	.	.	.
.	.	.	.	.	.	.	.	.	.	.	.	.	8dd\J)	.	.	.	.	.
.	.	.	.	.	.	.	.	.	.	.	.	.	8qqcc#/	.	.	.	.	.
4E\	#	4E\	.	.	.	.	2E\	.	.	.	2g#X\	.	2bT\	.	.	.	.	.
4EE/	7	4EE/	.	.	.	.	.	.	4d\	.	.	.	.	.	.	.	.	.
!	!	!	!	!	!	!	!LO:LB:g=original	!	!	!	!	!	!	!	!	!	!	!
=48	=48	=48	=48	=48	=48	=48	=48	=48	=48	=48	=48	=48	=48	=48	=48	=48	=48	=48
!LO:TX:b:t=Solo.	!	!LO:TX:b:i:t=Solo	!	!	!	!	!	!	!	!	!	!	!	!	!	!	!	!
4AA/	.	4AA/	4c#/	.	4e/	.	2AA/	-bit	2c#\	-bit.	2a\	-bit.	2a\	-bit	4a/	.	4ee\	.
4C#/	6	4C#/	8.e/L	.	8.a\L	.	.	.	.	.	.	.	.	.	4ee\	.	4aa\	.
.	.	.	16a/K	.	16cc#\K	.	.	.	.	.	.	.	.	.	.	.	.	.
4E\	7 #	4E\	8.g#X/	.	8.b\	.	4r	.	4r	.	4r	.	4r	.	4ee\	.	4gg#X\	.
.	.	.	16b/Jk	.	16dd\Jk	.	.	.	.	.	.	.	.	.	.	.	.	.
!	!	!	!	!	!LO:LB:g=original	!	!	!	!	!	!	!	!	!	!LO:LB:g=original	!	!	!
=49	=49	=49	=49	=49	=49	=49	=49	=49	=49	=49	=49	=49	=49	=49	=49	=49	=49	=49
!	!	!	!LO:TUP:a	!	!LO:TUP:a	!	!	!	!	!	!	!	!	!	!	!	!	!
!	!	!	!LO:TX:a:t=P:problem: klamra łukowa	!	!LO:TX:a:t=P:problem: klamra łukowa	!	!LO:TX:a:t=23.	!	!LO:TX:a:t=23.	!	!LO:TX:a:t=15.	!	!LO:TX:a:t=15	!	!	!	!	!
4A\	.	4A\	12a\L	.	12cc#\L	.	0.r	.	0.r	.	0.r	.	0.r	.	4ee\	.	4aa\	.
.	.	.	12dd\	.	12ff#\	.	.	.	.	.	.	.	.	.	.	.	.	.
.	.	.	12cc#\J	.	12ee\J	.	.	.	.	.	.	.	.	.	.	.	.	.
.	.	.	8qqdd/	.	8qqff#/	.	.	.	.	.	.	.	.	.	.	.	.	.
8r	.	8r	2cc#\	.	2ee\	.	.	.	.	.	.	.	.	.	8a/L	.	8ee\L	.
8A\L|	.	8A\L|	.	.	.	.	.	.	.	.	.	.	.	.	8a/J	.	8ee\J	.
8E\|	.	8E\|	.	.	.	.	.	.	.	.	.	.	.	.	4a/	.	4ee\	.
8C#\J|	.	8C#\J|	.	.	.	.	.	.	.	.	.	.	.	.	.	.	.	.
!LO:LB:g=original	!	!	!	!	!	!	!	!	!	!	!	!	!	!	!	!	!	!
=50	=50	=50	=50	=50	=50	=50	=50	=50	=50	=50	=50	=50	=50	=50	=50	=50	=50	=50
4AA/	.	4AA/	4c#/	.	4e/	.	.	.	.	.	.	.	.	.	4r	.	4r	.
4C#/	6	4C#/	8.e/L	.	8.a\L	.	.	.	.	.	.	.	.	.	4ee\	.	4aa\	.
.	.	.	16a/K	.	16cc#\K	.	.	.	.	.	.	.	.	.	.	.	.	.
4E\	7 #	4E\	8.g#X/	.	8.b\	.	.	.	.	.	.	.	.	.	4ee\	.	4gg#X\	.
.	.	.	16b/Jk	.	16dd\Jk	.	.	.	.	.	.	.	.	.	.	.	.	.
=51	=51	=51	=51	=51	=51	=51	=51	=51	=51	=51	=51	=51	=51	=51	=51	=51	=51	=51
4A\	9	4A\	(4b/	.	(4.cc#\	.	.	.	.	.	.	.	.	.	4r	.	4r	.
4AA/	8	4AA/	4a/)	.	.	.	.	.	.	.	.	.	.	.	8ee\L	.	8ee\L	.
.	.	.	.	.	16dd#X\LL	.	.	.	.	.	.	.	.	.	8ee\J	.	8ee\J	.
.	.	.	.	.	16ee\JJ)	.	.	.	.	.	.	.	.	.	.	.	.	.
4E\	#	4E\	4g#X/|	.	4b/	.	.	.	.	.	.	.	.	.	4ee\	.	4ee\	.
!	!	!	!LO:LB:g=original	!	!	!	!	!	!	!	!	!	!	!	!	!	!	!
=52	=52	=52	=52	=52	=52	=52	=52	=52	=52	=52	=52	=52	=52	=52	=52	=52	=52	=52
!	!	!	!	!	!	!	!	!	!	!	!	!	!	!	!LO:TX:a:t=2.	!	!LO:TX:a:t=2.	!
2F#\	6	2F#\	2a/	.	(4ddn\	.	.	.	.	.	.	.	.	.	1.r	.	1.r	.
.	4| 3	.	.	.	4b#X/)	.	.	.	.	.	.	.	.	.	.	.	.	.
4E\	6 #	4E\	4g#X/	.	4cc#\|	.	.	.	.	.	.	.	.	.	.	.	.	.
=53	=53	=53	=53	=53	=53	=53	=53	=53	=53	=53	=53	=53	=53	=53	=53	=53	=53	=53
2D/	6	2D/	2f#/	.	(4bn/	.	0.r	.	0.r	.	0.r	.	0.r	.	.	.	.	.
.	4| 3	.	.	.	4g#X/)	.	.	.	.	.	.	.	.	.	.	.	.	.
4C#/	6	4C#/	4e/	.	4a/|	.	.	.	.	.	.	.	.	.	.	.	.	.
!	!	!LO:LB:g=original	!	!	!	!	!	!	!	!	!	!	!	!	!	!	!	!
=54	=54	=54	=54	=54	=54	=54	=54	=54	=54	=54	=54	=54	=54	=54	=54	=54	=54	=54
2D\	6	2D/	(8f#/L	.	(32b\LLL	.	.	.	.	.	.	.	.	.	2dd\	.	2ff#\	.
.	.	.	.	.	32dd\JJ	.	.	.	.	.	.	.	.	.	.	.	.	.
.	.	.	.	.	8.ff#\J)	.	.	.	.	.	.	.	.	.	.	.	.	.
.	.	.	8d/J)	.	.	.	.	.	.	.	.	.	.	.	.	.	.	.
.	.	.	8qqc#/	.	.	.	.	.	.	.	.	.	.	.	.	.	.	.
.	.	.	2BT/	.	4f#/	.	.	.	.	.	.	.	.	.	.	.	.	.
4E\	#	4E\	.	.	4g#Xt/	.	.	.	.	.	.	.	.	.	8dd\L	.	4gg#X\	.
.	.	.	.	.	.	.	.	.	.	.	.	.	.	.	8ee\J	.	.	.
=55	=55	=55	=55	=55	=55	=55	=55	=55	=55	=55	=55	=55	=55	=55	=55	=55	=55	=55
!LO:TX:a:t=P:problem:mixed beam	!	!	!LO:TX:a:t=P:problem:mixed beam	!	!	!	!	!	!	!	!	!	!	!	!	!	!	!
.	.	.	.	.	8qqg/	.	.	.	.	.	.	.	.	.	.	.	.	.
8AA/L	.	8AA/L	8c#/L	.	2a/	.	.	.	.	.	.	.	.	.	4a/	.	4aa\	.
8A\	.	8A\	8cc#\	.	.	.	.	.	.	.	.	.	.	.	.	.	.	.
8G#X\|	.	8G#X\|	8b\	.	.	.	.	.	.	.	.	.	.	.	4r	.	4r	.
8F#\|	.	8F#\|	8a\	.	.	.	.	.	.	.	.	.	.	.	.	.	.	.
8E\|	.	8E\|	8g#X\	.	4r	.	.	.	.	.	.	.	.	.	4r	.	4r	.
8D\J|	.	8D\J|	8f#\J	.	.	.	.	.	.	.	.	.	.	.	.	.	.	.
!	!	!	!	!	!	!	!	!	!	!	!	!	!	!	!	!	!LO:LB:g=original	!
=56	=56	=56	=56	=56	=56	=56	=56	=56	=56	=56	=56	=56	=56	=56	=56	=56	=56	=56
!	!	!	!	!LO:DY:t=pian	!	!	!	!	!	!	!	!	!	!	!LO:TX:a:t=1.	!	!LO:TX:a:t=1.	!
4C#/	6	4C#/	4e/	p	8r	.	.	.	.	.	.	.	.	.	2.r	.	2.r	.
.	.	.	.	.	(8aa\L	.	.	.	.	.	.	.	.	.	.	.	.	.
4BB/	.	4BB/	4d/	.	8gg#X\	.	.	.	.	.	.	.	.	.	.	.	.	.
.	.	.	.	.	8aa\	.	.	.	.	.	.	.	.	.	.	.	.	.
4AA/	.	4AA/	4c#/	.	8gg#\	.	.	.	.	.	.	.	.	.	.	.	.	.
.	.	.	.	.	8aa\J)	.	.	.	.	.	.	.	.	.	.	.	.	.
=57	=57	=57	=57	=57	=57	=57	=57	=57	=57	=57	=57	=57	=57	=57	=57	=57	=57	=57
4d\	.	4d\	(4.dd\	.	(4.ff#\	.	0.r	.	0.r	.	0.r	.	0.r	.	2ff#\	.	2ddd\	.
4D\	.	4D/	.	.	.	.	.	.	.	.	.	.	.	.	.	.	.	.
.	.	.	16ee\LL	.	16gg#X\LL	.	.	.	.	.	.	.	.	.	.	.	.	.
.	.	.	16ff#\JJ)	.	16aa\JJ)	.	.	.	.	.	.	.	.	.	.	.	.	.
4A\	.	4A\	4cc#\|	.	4ee\|	.	.	.	.	.	.	.	.	.	4ee\	.	4ccc#\	.
!	!	!	!	!	!LO:LB:g=original	!	!	!	!	!	!	!	!	!	!	!	!	!
=58	=58	=58	=58	=58	=58	=58	=58	=58	=58	=58	=58	=58	=58	=58	=58	=58	=58	=58
!	!	!	!	!	!	!	!	!	!	!	!	!	!	!	!LO:TX:a:t=1.	!	!LO:TX:a:t=1.	!
4c#\	6	4c#\	4e/	.	8r	.	.	.	.	.	.	.	.	.	2.r	.	2.r	.
.	.	.	.	.	8aa\L|	.	.	.	.	.	.	.	.	.	.	.	.	.
4B\	.	4B\	4d/	.	(8gg#X\	.	.	.	.	.	.	.	.	.	.	.	.	.
.	.	.	.	.	8aa\	.	.	.	.	.	.	.	.	.	.	.	.	.
4A\	.	4A\	4c#/	.	8gg#\	.	.	.	.	.	.	.	.	.	.	.	.	.
.	.	.	.	.	8aa\J)	.	.	.	.	.	.	.	.	.	.	.	.	.
!LO:LB:g=original	!	!	!	!	!	!	!	!	!	!	!	!	!	!	!	!	!	!
=59	=59	=59	=59	=59	=59	=59	=59	=59	=59	=59	=59	=59	=59	=59	=59	=59	=59	=59
4e\	#	4e\	(4.g#X/	.	(4.b\	.	.	.	.	.	.	.	.	.	2ee\	.	2gg#X\	.
4E\	7	4E\	.	.	.	.	.	.	.	.	.	.	.	.	.	.	.	.
.	.	.	16a/LL	.	16cc#\LL	.	.	.	.	.	.	.	.	.	.	.	.	.
.	.	.	16b/JJ)	.	16dd\JJ)	.	.	.	.	.	.	.	.	.	.	.	.	.
4A\	.	4A\	4a/|	.	4cc#\|	.	.	.	.	.	.	.	.	.	4dd\	.	4aa\	.
=60	=60	=60	=60	=60	=60	=60	=60	=60	=60	=60	=60	=60	=60	=60	=60	=60	=60	=60
*	*	*	*	*	*Xtuplet	*	*	*	*	*	*	*	*	*	*	*	*	*
4d\	.	4d\	4r	.	12ff#\L|	f	.	.	.	.	.	.	.	.	4r	.	4r	.
.	.	.	.	.	12dd\|	.	.	.	.	.	.	.	.	.	.	.	.	.
.	.	.	.	.	12a#X\J|	.	.	.	.	.	.	.	.	.	.	.	.	.
!	!	!	!	!	!LO:TX:a:t=P:problem: klamra łukowa	!	!	!	!	!	!	!	!	!	!	!	!	!
[2D/	6	[2D/	4f#/	f	12b\L	.	.	.	.	.	.	.	.	.	4dd\	.	4ff#\	.
.	.	.	.	.	12cc#\	.	.	.	.	.	.	.	.	.	.	.	.	.
.	.	.	.	.	12dd\J	.	.	.	.	.	.	.	.	.	.	.	.	.
!	!	!	!	!	!LO:TX:a:t=P:problem: klamra łukowa	!	!	!	!	!	!	!	!	!	!	!	!	!
.	.	.	12f#/L	.	12dd\L	.	.	.	.	.	.	.	.	.	4dd\	.	4ff#\	.
.	.	.	12e/	.	12ee\	.	.	.	.	.	.	.	.	.	.	.	.	.
.	.	.	12d/J	.	12ff#\J	.	.	.	.	.	.	.	.	.	.	.	.	.
=61	=61	=61	=61	=61	=61	=61	=61	=61	=61	=61	=61	=61	=61	=61	=61	=61	=61	=61
4D/]	4| 2	4D/]	12g#X/L	.	(4.e/	.	0.r	.	0.r	.	1.r	.	1.r	.	2ee\	.	2gg#X\	.
.	.	.	12aX/	.	.	.	.	.	.	.	.	.	.	.	.	.	.	.
.	.	.	12b/J	.	.	.	.	.	.	.	.	.	.	.	.	.	.	.
8C#/L	.	8C#/L	2e/	.	.	.	.	.	.	.	.	.	.	.	.	.	.	.
8BB/J	.	8BB/J	.	.	16f#/LL	.	.	.	.	.	.	.	.	.	.	.	.	.
.	.	.	.	.	16g#X/JJ)	.	.	.	.	.	.	.	.	.	.	.	.	.
4C#/	6	4C#/	.	.	[4a/	.	.	.	.	.	.	.	.	.	4ee\	.	4aa\	.
=62	=62	=62	=62	=62	=62	=62	=62	=62	=62	=62	=62	=62	=62	=62	=62	=62	=62	=62
*	*	*	*Xtuplet	*	*	*	*	*	*	*	*	*	*	*	*	*	*	*
!	!	!	!	!	!LO:TX:a:t=P:problem: klamra łukowa	!	!	!	!	!	!	!	!	!	!	!	!	!
4D\	6 5	4D\	12f#\L	.	12a/L]	.	.	.	.	.	.	.	.	.	4ff#\	.	2aa\	.
.	.	.	12dd\	.	12ff#\	.	.	.	.	.	.	.	.	.	.	.	.	.
.	.	.	12b\J	.	12dd\J	.	.	.	.	.	.	.	.	.	.	.	.	.
4E\	6 4	4E\	4a/	.	4cc#\	.	.	.	.	.	.	.	.	.	2ee\	.	.	.
4EE/	5 #	4EE/	4g#Xt/	.	4bT\	.	.	.	.	.	.	.	.	.	.	.	4gg#X\	.
!	!	!	!LO:LB:g=original	!	!	!	!	!	!	!	!	!	!	!	!	!	!	!
=63	=63	=63	=63	=63	=63	=63	=63	=63	=63	=63	=63	=63	=63	=63	=63	=63	=63	=63
!	!	!	!	!	!	!	!	!	!	!	!LO:TX:b:i:t=Volti.	!	!	!	!	!	!	!
4AA/	.	4AA/	4a/	.	4a\	.	.	.	.	.	2.r	.	2.r	.	4ee\	.	4aa\	.
(8A\L	.	(8A\L	4A/	.	4A/	.	.	.	.	.	.	.	.	.	8ee\L	.	8ccc#\L	.
8G#X\)	.	8G#X\)	.	.	.	.	.	.	.	.	.	.	.	.	8ee\J	.	8ccc#\J	.
(8A\	.	(8A\	4r	.	4r	.	.	.	.	.	.	.	.	.	4ee\	.	4ccc#\	.
8G#X\J)	.	8G#X\J)	.	.	.	.	.	.	.	.	.	.	.	.	.	.	.	.
!	!	!LO:LB:g=original	!	!	!	!	!	!	!	!	!LO:PB:g=original	!	!LO:LB:g=original	!	!	!	!	!
=64	=64	=64	=64	=64	=64	=64	=64	=64	=64	=64	=64	=64	=64	=64	=64	=64	=64	=64
!	!	!	!	!	!	!	!	!	!	!	!	!	!	!	!	!	!	!LO:DY:t=pian
4A\	8 6	4A\	[2.ff#\	p	[2.aa\	p	.	.	.	.	8r	.	8r	.	4a/	p	4a/	p
.	.	.	.	.	.	.	.	.	.	.	8a\	e-	8ff#\	e-	.	.	.	.
4F#\|	.	4F#\|	.	.	.	.	.	.	.	.	4a\	-mit-	4ff#\	-mit-	4r	.	4r	.
!	!	!	!	!	!	!	!	!	!	!	!	!	!	!	!LO:TX:i:b:t=Volti	!	!	!
4D\|	.	4D\|	.	.	.	.	.	.	.	.	4a\	-tet	4ff#\	-tet	4r	.	4r	.
!	!	!	!	!	!	!	!	!	!	!	!	!	!	!	!LO:PB:g=original	!	!	!
=65	=65	=65	=65	=65	=65	=65	=65	=65	=65	=65	=65	=65	=65	=65	=65	=65	=65	=65
!	!	!	!	!	!	!	!	!	!	!	!	!	!	!	!LO:TX:a:t=1.	!	!LO:TX:a:t=1.	!
2.AA/	8 6	2.AA/	8ff#\L]	.	8aa\L]|	.	0.r	.	0.r	.	(4a\	su-	(4ff#\	ver-	2.r	.	2.r	.
.	.	.	8ee\|	.	8gg\|	.	.	.	.	.	.	.	.	.	.	.	.	.
.	7 5	.	(8ee\	.	(8gg\	.	.	.	.	.	4gn\)	.	4ee\)	.	.	.	.	.
.	.	.	8dd\)	.	8ff#\	.	.	.	.	.	.	.	.	.	.	.	.	.
.	6 4	.	(8dd\	.	(8ff#\)	.	.	.	.	.	4f#\	-um	4dd\	-bum	.	.	.	.
.	.	.	8ee\J)	.	8gg\J)	.	.	.	.	.	.	.	.	.	.	.	.	.
=66	=66	=66	=66	=66	=66	=66	=66	=66	=66	=66	=66	=66	=66	=66	=66	=66	=66	=66
4A\	7 5	4A\	[2.ee\	.	[2.gg\	.	.	.	.	.	4g\	et	4ee\	et	4a/	.	4a/	.
4E\|	.	4E\|	.	.	.	.	.	.	.	.	8g\	li-	8ee\	li-	4r	.	4r	.
.	.	.	.	.	.	.	.	.	.	.	8g\	-que	8ee\	-que-	.	.	.	.
4C#/|	.	4C#/|>	.	.	.	.	.	.	.	.	16g\	fa-	8ee\	-fa-	4r	.	4r	.
.	.	.	.	.	.	.	.	.	.	.	16g\	-ci-	.	.	.	.	.	.
.	.	.	.	.	.	.	.	.	.	.	8g\	-et	16ee\	-ci-	.	.	.	.
.	.	.	.	.	.	.	.	.	.	.	.	.	16ee\	-et	.	.	.	.
!LO:LB:g=original	!	!	!	!	!	!	!	!	!	!	!	!	!	!	!	!	!	!
=67	=67	=67	=67	=67	=67	=67	=67	=67	=67	=67	=67	=67	=67	=67	=67	=67	=67	=67
!	!	!	!	!	!	!	!	!	!	!	!	!	!	!	!LO:TX:a:t=1.	!	!LO:TX:a:t=1.	!
2.AA/	7 5	2.AA/	8ee\L]	.	8gg\L]	.	.	.	.	.	(4g\	e-	(4ee\	e-	2.r	.	2.r	.
.	.	.	8dd\|	.	8ff#\|	.	.	.	.	.	.	.	.	.	.	.	.	.
.	6 4	.	(8dd\	.	(8ff#\	.	.	.	.	.	4f#\)	.	4dd\)	.	.	.	.	.
.	.	.	8cc#\)	.	8ee\)	.	.	.	.	.	.	.	.	.	.	.	.	.
.	5 3	.	(8cc#\	.	(8ee\	.	.	.	.	.	4e\|	-a	4cc#\	-a	.	.	.	.
.	.	.	8dd\J)	.	8ff#\J)	.	.	.	.	.	.	.	.	.	.	.	.	.
!	!	!	!	!	!LO:LB:g=original	!	!	!	!	!	!	!	!	!	!	!	!	!
=68	=68	=68	=68	=68	=68	=68	=68	=68	=68	=68	=68	=68	=68	=68	=68	=68	=68	=68
.	.	.	8qqee/	.	8qqgg/	.	.	.	.	.	.	.	.	.	.	.	.	.
4A\	6 4	4A\	[2.dd\	.	[2.ff#\	.	.	.	.	.	8f#\	fla-	8dd\	fla-	4a/	.	4a/	.
.	.	.	.	.	.	.	.	.	.	.	8f#\	-bit	8dd\	-bit	.	.	.	.
4F#\|	.	4F#\|	.	.	.	.	.	.	.	.	4f#\	Spi-	8dd\	Spi-	4r	.	4r	.
.	.	.	.	.	.	.	.	.	.	.	.	.	8dd\	-ri-	.	.	.	.
4D\|	.	4D\|	.	.	.	.	.	.	.	.	8f#\	-ri-	4dd\	-tus	4r	.	4r	.
.	.	.	.	.	.	.	.	.	.	.	8f#\	-tus	.	.	.	.	.	.
=69	=69	=69	=69	=69	=69	=69	=69	=69	=69	=69	=69	=69	=69	=69	=69	=69	=69	=69
!	!	!	!	!	!	!	!	!	!	!	!	!	!	!	!LO:TX:a:t=3.	!	!LO:TX:a:t=3.	!
2.AA/	6 4	2.AA/	8dd\L]	.	8ff#\L]	.	1.r	.	1.r	.	(4f#\	e-	(4dd\	e-	1.r	.	1.r	.
.	.	.	8cc#\|	.	8ee\|	.	.	.	.	.	.	.	.	.	.	.	.	.
.	5 3	.	(8cc#\	.	(8ee\	.	.	.	.	.	4e\)	.	4cc#\)	.	.	.	.	.
.	.	.	8b\)	.	8dd\)	.	.	.	.	.	.	.	.	.	.	.	.	.
.	4 2	.	(8b\	.	(8dd\	.	.	.	.	.	4d\|	-jus	4b\	-jus	.	.	.	.
.	.	.	8cc#\J)	.	8ee\J)	.	.	.	.	.	.	.	.	.	.	.	.	.
!	!	!	!	!	!	!	!	!	!	!	!LO:LB:g=original	!	!LO:PB:g=original	!	!	!	!	!
=70	=70	=70	=70	=70	=70	=70	=70	=70	=70	=70	=70	=70	=70	=70	=70	=70	=70	=70
4A\	5 3	4A\	8cc#\L	.	8ee\L	.	.	.	.	.	8e\L	et	8cc#\L	et	.	.	.	.
.	.	.	8dd\J	.	8ff#\J	.	.	.	.	.	8f#\J	.	8dd\J	.	.	.	.	.
4C#/	6 5	4C#/	4ee\	.	4gg\	.	.	.	.	.	4g\	flu-	4ee\	flu-	.	.	.	.
4D/	.	4D/	4dd\	.	4ff#\	.	.	.	.	.	4f#\	-ent	4dd\	-ent	.	.	.	.
=71	=71	=71	=71	=71	=71	=71	=71	=71	=71	=71	=71	=71	=71	=71	=71	=71	=71	=71
.	.	.	8qqee/	.	8qqgg/	.	.	.	.	.	8qqg/	.	8qqee/	.	.	.	.	.
4AA/	.	4AA/	4dd\	.	4ff#\	.	2.r	.	2.r	.	4f#\	a-	4dd\	a-	2.r	.	2.r	.
!LO:TX:b:t=Tutti	!	!LO:TX:b:i:t=Tutti	!	!	!	!	!	!	!	!	!	!	!	!	!	!	!	!
8A\L|	.	8A\L|	4cc#\	.	4ee\	.	.	.	.	.	4e\	-qua	4cc#\	-qua	.	.	.	.
8G\|	.	8G\|	.	.	.	.	.	.	.	.	.	.	.	.	.	.	.	.
8F#\|	.	8F#\|	4r	.	4r	.	.	.	.	.	4r	.	4r	.	.	.	.	.
8E\J|	.	8E\J|	.	.	.	.	.	.	.	.	.	.	.	.	.	.	.	.
=72	=72	=72	=72	=72	=72	=72	=72	=72	=72	=72	=72	=72	=72	=72	=72	=72	=72	=72
4D\	.	4D\	4f#/	f	4a/	f	(4D/	qui	2A/	qui	4f#\	qui	4a\	qui	4f#/	.	4a/	.
4F#\	6	4F#\	8.a\L	.	8.dd\L	.	4F#\)	.	.	.	2a\	an-	(4dd\	an-	8.a/L	.	8.dd\L	.
.	.	.	16dd\K	.	16ff#\K	.	.	.	.	.	.	.	.	.	16dd/Jk	.	16ff#\Jk	.
4A\	7	4A\	8.cc#\	.	8.ee\	.	4A\	an-	4c#\	an-	.	.	4ee\)	.	8.a/L	.	8.ee\L	.
.	.	.	16ee\Jk	.	16gg\Jk	.	.	.	.	.	.	.	.	.	16ee/Jk	.	16gg\Jk	.
=73	=73	=73	=73	=73	=73	=73	=73	=73	=73	=73	=73	=73	=73	=73	=73	=73	=73	=73
*	*	*	*tuplet	*	*	*	*	*	*	*	*	*	*	*	*	*	*	*
!	!	!	!LO:TX:a:t=P:problem: klamra łukowa	!	!LO:TX:a:t=P:problem: klamra łukowa	!	!	!	!	!	!	!	!	!	!	!	!	!
!	!	!	!LO:TUP:a	!	!	!	!	!	!	!	!	!	!	!	!	!	!	!
4D/	.	4D/	12dd\L	.	12ff#\L	.	4.d\	-nun-	4.d\	-nun-	4.a\	-nun-	4.ff#\	-nun-	8.dd\L	.	8.ff#\L	.
.	.	.	12ee\	.	12gg\	.	.	.	.	.	.	.	.	.	.	.	.	.
.	.	.	12ff#\J	.	12aa\J	.	.	.	.	.	.	.	.	.	.	.	.	.
.	.	.	.	.	.	.	.	.	.	.	.	.	.	.	16ee\Jk	.	16gg\Jk	.
.	.	.	8qqb/	.	.	.	.	.	.	.	.	.	.	.	.	.	.	.
8.d\L	7 n	8.d\L	2a/	.	2ccn\	.	.	.	.	.	.	.	.	.	2ff#\	.	2aa\	.
.	.	.	.	.	.	.	8D/	-ti-	8d\	-ti-	8a\	-ti-	8ff#\	-ci-	.	.	.	.
16A\K	.	16A\K	.	.	.	.	.	.	.	.	.	.	.	.	.	.	.	.
8.F#\	.	8.F#\	.	.	.	.	4D/	-at	4d\	-at	4a\	-at	4ff#\	-at	.	.	.	.
16D\Jk	.	16D\Jk	.	.	.	.	.	.	.	.	.	.	.	.	.	.	.	.
!	!	!	!LO:LB:g=original	!	!	!	!	!	!	!	!	!	!	!	!	!	!	!
=74	=74	=74	=74	=74	=74	=74	=74	=74	=74	=74	=74	=74	=74	=74	=74	=74	=74	=74
!	!	!	!	!	!	!	!	!	!	!	!	!	!	!	!	!	!LO:TX:b:i:t=Volti	!
!	!	!	!	!	!	!	!	!	!	!	!	!	!	!	!LO:TX:a:t=1.	!	!LO:TX:a:t=1.	!
4G\	.	4G\	2g/	.	4b\	.	(4G\	ver-	(4d\	ver-	4b\	ver-	(4gg\	ver-	2.r	.	2.r	.
4cn\	.	4cn\	.	.	4ee\	.	4cn\)	.	4cn\)	.	2g\	-bum	4ee\)	.	.	.	.	.
4B\	6	4B\	4g/	.	8.dd\L	.	4B\	-bum	4d\	-bum	.	.	4dd\	-bum	.	.	.	.
.	.	.	.	.	16gg\Jk	.	.	.	.	.	.	.	.	.	.	.	.	.
!LO:LB:g=original	!	!LO:LB:g=original	!	!	!	!	!	!	!	!	!	!	!	!	!	!	!LO:PB:g=original	!
=75	=75	=75	=75	=75	=75	=75	=75	=75	=75	=75	=75	=75	=75	=75	=75	=75	=75	=75
.	.	.	.	.	8qqdd/	.	.	.	.	.	.	.	8qqdd/	.	.	.	.	.
4A\	7 n	4A\	(4g/	.	2ccn\	.	(4A\	Ja-	4e\	su-	(4g\	Ja-	2ccn\	su-	4r	.	4r	.
4D/	n7r	4D/	4f#/)	.	.	.	4D/)	.	2d\	-um	4f#\)	.	.	.	8d/L	.	8d/L	.
.	.	.	.	.	.	.	.	.	.	.	.	.	.	.	8d/J	.	8d/J	.
4G\	.	4G\	4g/|	.	4b/	.	4G\	-cob	.	.	4g\	-cob	4b\	-um	4d/	.	4d/	.
=76	=76	=76	=76	=76	=76	=76	=76	=76	=76	=76	=76	=76	=76	=76	=76	=76	=76	=76
!	!	!	!	!	!	!	!	!	!	!	!	!	!	!	!LO:TX:a:t=2.	!	!LO:TX:a:t=2.	!
4E\	#	4E\	4g#X/	.	4b/	.	4E\	jus-	2e\	jus-	2g#X\	et	2b\	et	1.r	.	1.r	.
4G#X\	6	4G#X\	8.b\L	.	8.ee\L	.	4G#X\	.	.	.	.	.	.	.	.	.	.	.
.	.	.	16ee\Jk	.	16gg#X\K	.	.	.	.	.	.	.	.	.	.	.	.	.
4B\	7 #	4B\	8.dd#X\L	.	8.ff#\	.	4B\	.	4d#X\	.	4f#\	ju-	4b\	ju-	.	.	.	.
.	.	.	16ff#\Jk	.	16aa\Jk	.	.	.	.	.	.	.	.	.	.	.	.	.
!	!	!	!	!	!	!	!LO:LB:g=original	!	!LO:LB:g=original	!	!	!	!	!	!	!	!	!
=77	=77	=77	=77	=77	=77	=77	=77	=77	=77	=77	=77	=77	=77	=77	=77	=77	=77	=77
*	*	*	*	*	*tuplet	*	*	*	*	*	*	*	*	*	*	*	*	*
!	!	!	!LO:TUP:a	!	!LO:TUP:a	!	!	!	!	!	!	!	!	!	!	!	!	!
!	!	!	!LO:TX:a:t=P:problem: klamra łukowa	!	!LO:TX:a:t=P:problem: klamra łukowa	!	!	!	!	!	!	!	!	!	!	!	!	!
4E\	#	4E\	12ee\L	.	12gg#X\L	.	4.e\	-ti-	4.e\	-ti-	4.g#X\	-di-	4.b\	-di-	.	.	.	.
.	.	.	12ff#\	.	12aa\	.	.	.	.	.	.	.	.	.	.	.	.	.
.	.	.	12gg#X\J	.	12bb\J	.	.	.	.	.	.	.	.	.	.	.	.	.
.	.	.	8qqcc#/	.	8qqee/	.	.	.	.	.	.	.	.	.	.	.	.	.
8.e\L	7	8.e\L	2b\	.	2dd\	.	.	.	.	.	.	.	.	.	.	.	.	.
.	.	.	.	.	.	.	8E\	-ti-	8e\	-ti-	8g#\	-ci-	8b\	-ci-	.	.	.	.
16B\K	.	16B\K	.	.	.	.	.	.	.	.	.	.	.	.	.	.	.	.
8.G#X\	.	8.G#X\	.	.	.	.	4E\	-as	4e\	-as	4g#\	-a	4b\	-a	.	.	.	.
16E\Jk	.	16E\Jk	.	.	.	.	.	.	.	.	.	.	.	.	.	.	.	.
!	!	!	!	!	!LO:LB:g=original	!	!	!	!	!	!LO:LB:g=original	!	!	!	!	!	!	!
=78	=78	=78	=78	=78	=78	=78	=78	=78	=78	=78	=78	=78	=78	=78	=78	=78	=78	=78
4A\	#	4A\	2a/	.	4cc#\	.	4A\	et	4e\	et	2a\	su-	(4cc#X\	su-	4r	.	4r	.
4d\	.	4d\	.	.	4ff#\	.	4d\	su-	4d\	su-	.	.	4ff#\)	.	4ff#\	.	[2aa\	.
4c#\	6	4c#\	4a/	.	8.ee\L	.	4c#X\	-a	4e\	-a	4a\	-a	4ee\	-a	4ee\	.	.	.
.	.	.	.	.	16aa\Jk	.	.	.	.	.	.	.	.	.	.	.	.	.
!	!	!	!	!	!	!	!	!	!	!	!	!	!LO:LB:g=original	!	!	!	!	!
=79	=79	=79	=79	=79	=79	=79	=79	=79	=79	=79	=79	=79	=79	=79	=79	=79	=79	=79
.	.	.	.	.	8qqee/	.	.	.	.	.	.	.	8qqee/	.	.	.	.	.
4B\	7	4B\	(4a/	.	2dd\	.	(4B\	Is-	(4f#\	Is-	(4a\	Is-	4.dd\	Is-	4.dd\	.	4aa\]	.
4E\	7 #	4E\	4g#X/)	.	.	.	8E\)	.	8e\)	.	8g#X\)	.	.	.	.	.	4gg#X\	.
.	.	.	.	.	.	.	8E\	-ra-	8e\	-ra-	8g#\	-ra-	8dd\	-ra-	8ee\	.	.	.
4A\	.	4A\	4a/|	.	4cc#\	.	4A\	-el	4e\	-el	4a\	-el	4cc#\	-el	4ee\	.	4aa\	.
=80	=80	=80	=80	=80	=80	=80	=80	=80	=80	=80	=80	=80	=80	=80	=80	=80	=80	=80
*	*	*	*	*	*Xtuplet	*	*	*	*	*	*	*	*	*	*	*	*	*
!	!	!	!	!	!	!	!	!	!	!	!	!	!	!	!LO:TX:a:t=2.	!	!LO:TX:a:t=2.	!
4AA/	.	4AA/	4b\	.	(12ee\L	.	4A\	non	4A/	non	4e\	non	4cc#\	non	1.r	.	1.r	.
.	.	.	.	.	12a\)	.	.	.	.	.	.	.	.	.	.	.	.	.
.	.	.	.	.	12ee\J|	.	.	.	.	.	.	.	.	.	.	.	.	.
4AA/	8 6	4AA/	8.ff#\L	.	(12aa\L	.	4A\	fe-	4A/	fe-	4a\	fe-	4ff#\	fe-	.	.	.	.
.	.	.	.	.	12a\)	.	.	.	.	.	.	.	.	.	.	.	.	.
.	.	.	.	.	12aa\J|	.	.	.	.	.	.	.	.	.	.	.	.	.
.	.	.	16aa\Jk	.	.	.	.	.	.	.	.	.	.	.	.	.	.	.
4AA/	7 5	4AA/	8.ee\L	.	(12gg\L	.	4A\	-cit	4A/	-cit	4gn\	-cit	4ee\	-cit	.	.	.	.
.	.	.	.	.	12a\)	.	.	.	.	.	.	.	.	.	.	.	.	.
.	.	.	.	.	12gg\J|	.	.	.	.	.	.	.	.	.	.	.	.	.
.	.	.	16aa\Jk	.	.	.	.	.	.	.	.	.	.	.	.	.	.	.
=81	=81	=81	=81	=81	=81	=81	=81	=81	=81	=81	=81	=81	=81	=81	=81	=81	=81	=81
4AA/	6 4	4AA/	8.dd\L	.	(12ff#\L	.	4.A\	ta-	4.A/	ta-	(4f#\	ta-	(4dd\	ta-	.	.	.	.
.	.	.	.	.	12a\)	.	.	.	.	.	.	.	.	.	.	.	.	.
.	.	.	.	.	12ff#\J|	.	.	.	.	.	.	.	.	.	.	.	.	.
.	.	.	16aa\Jk	.	.	.	.	.	.	.	.	.	.	.	.	.	.	.
4AA/	5 3	4AA/	8.cc#\L	.	(12ee\L	.	.	.	.	.	8e\)	.	8cc#\)	.	.	.	.	.
.	.	.	.	.	12a\)	.	.	.	.	.	.	.	.	.	.	.	.	.
.	.	.	.	.	.	.	8A\	-li-	8A/	-li-	8e\	-li-	8cc#\	-li-	.	.	.	.
.	.	.	.	.	12ee\J|	.	.	.	.	.	.	.	.	.	.	.	.	.
.	.	.	16aa\Jk	.	.	.	.	.	.	.	.	.	.	.	.	.	.	.
4AA/	4 2	4AA/	8.b\L	.	(12dd\L	.	4A\	-ter	4A/	-ter	4d\	-ter	4b\	-ter	.	.	.	.
.	.	.	.	.	12a\)	.	.	.	.	.	.	.	.	.	.	.	.	.
.	.	.	.	.	12dd\J|	.	.	.	.	.	.	.	.	.	.	.	.	.
.	.	.	16aa\Jk	.	.	.	.	.	.	.	.	.	.	.	.	.	.	.
=82	=82	=82	=82	=82	=82	=82	=82	=82	=82	=82	=82	=82	=82	=82	=82	=82	=82	=82
*	*	*	*Xtuplet	*	*	*	*	*	*	*	*	*	*	*	*	*	*	*
!	!	!	!LO:TX:a:t=P:problem: klamra łukowa	!	!	!	!	!	!	!	!	!	!	!	!	!	!	!
4AA/	3 1	4AA/	12a\L	.	(12cc#\L	.	8A\	o-	8A/	o-	8c#/	o-	8a\	o-	4r	.	4r	.
.	.	.	12cc#\	.	12a\)	.	.	.	.	.	.	.	.	.	.	.	.	.
.	.	.	.	.	.	.	8A\	-mni	8A/	-mni	8c#/	-mni	8a\	-mni	.	.	.	.
.	.	.	12ee\J|	.	12cc#\J|	.	.	.	.	.	.	.	.	.	.	.	.	.
4AA/	8 6	4AA/	(12aa\L	.	8.ff#\L	.	4A\	na-	4A/	na-	4a\	na-	4ff#\	na-	4ff#\	.	4aa\	.
.	.	.	12a\)	.	.	.	.	.	.	.	.	.	.	.	.	.	.	.
.	.	.	12aa\J|	.	.	.	.	.	.	.	.	.	.	.	.	.	.	.
.	.	.	.	.	16aa\Jk	.	.	.	.	.	.	.	.	.	.	.	.	.
4AA/	7 5	4AA/	(12gg\L	.	8.ee\L	.	4A\	-ti-	4A/	-ti-	4g\	-ti-	4ee\	-ti-	4ee\	.	4ggn\	.
.	.	.	12a\)	.	.	.	.	.	.	.	.	.	.	.	.	.	.	.
.	.	.	12gg\J|	.	.	.	.	.	.	.	.	.	.	.	.	.	.	.
.	.	.	.	.	16aa\Jk	.	.	.	.	.	.	.	.	.	.	.	.	.
!LO:LB:g=original	!	!	!	!	!	!	!	!	!	!	!	!	!	!	!	!	!	!
=83	=83	=83	=83	=83	=83	=83	=83	=83	=83	=83	=83	=83	=83	=83	=83	=83	=83	=83
4AA/	6 4	4AA/	(12ff#\L	.	8.dd\L	.	2.A\	-o-	2.A/	-o-	(4f#\	-o-	(4dd\	-o-	4dd\	.	4ff#\	.
.	.	.	12a\)	.	.	.	.	.	.	.	.	.	.	.	.	.	.	.
.	.	.	12ff#\J|	.	.	.	.	.	.	.	.	.	.	.	.	.	.	.
.	.	.	.	.	16aa\Jk	.	.	.	.	.	.	.	.	.	.	.	.	.
4AA/	5 3	4AA/	(12ee\L	.	8.cc#\L	.	.	.	.	.	4e\)	.	4cc#\)	.	4a/	.	4ee\	.
.	.	.	12a\)	.	.	.	.	.	.	.	.	.	.	.	.	.	.	.
.	.	.	12ee\J|	.	.	.	.	.	.	.	.	.	.	.	.	.	.	.
.	.	.	.	.	16aa\Jk	.	.	.	.	.	.	.	.	.	.	.	.	.
4AA/	4 2	4AA/	(12dd\L	.	8.b\L	.	.	.	.	.	4d\	-ni	4b\	-ni	4f#/	.	4dd\	.
.	.	.	12a\)	.	.	.	.	.	.	.	.	.	.	.	.	.	.	.
.	.	.	12dd\J|	.	.	.	.	.	.	.	.	.	.	.	.	.	.	.
.	.	.	.	.	16aa\Jk	.	.	.	.	.	.	.	.	.	.	.	.	.
!	!	!	!	!	!	!	!LO:LB:g=original	!	!	!	!	!	!	!	!LO:LB:g=original	!	!	!
=84	=84	=84	=84	=84	=84	=84	=84	=84	=84	=84	=84	=84	=84	=84	=84	=84	=84	=84
!	!	!	!	!	!LO:TX:a:t=P:problem: klamra łukowa	!	!	!	!	!	!	!	!	!	!	!	!	!
4AA/	3 1	4AA/	(12cc#\L	.	12a\L	.	4A\	-ni	4A/	-ni	8c#/	et	8a\	et	4a/	.	4ee\	.
.	.	.	12a\)	.	12cc#\	.	.	.	.	.	.	.	.	.	.	.	.	.
.	.	.	.	.	.	.	.	.	.	.	8c#/	ju-	8a\	ju-	.	.	.	.
.	.	.	12cc#\J|	.	12ee\J|	.	.	.	.	.	.	.	.	.	.	.	.	.
!	!	!	!	!	!LO:TX:a:t=P:problem: klamra łukowa	!	!	!	!	!	!	!	!	!	!	!	!	!
4AA/	8 6	4AA/	8.ff#\L	.	12aa\L	.	4r	.	4r	.	8a\	-di-	8ff#\	-di-	4r	.	4r	.
.	.	.	.	.	12a\	.	.	.	.	.	.	.	.	.	.	.	.	.
.	.	.	.	.	.	.	.	.	.	.	8a\	-ci-	8ff#\	-ci-	.	.	.	.
.	.	.	.	.	12aa\J|	.	.	.	.	.	.	.	.	.	.	.	.	.
.	.	.	16aa\Jk	.	.	.	.	.	.	.	.	.	.	.	.	.	.	.
!	!	!	!	!	!LO:TX:a:t=P:problem: klamra łukowa	!	!	!	!	!LO:LB:g=original	!	!	!	!	!	!	!	!
4AA/	7 5	4AA/	8.ee\L	.	12gg\L	.	4r	.	4r	.	4g\	-a	4ee\	-a	4r	.	4r	.
.	.	.	.	.	12a\	.	.	.	.	.	.	.	.	.	.	.	.	.
.	.	.	.	.	12gg\J|	.	.	.	.	.	.	.	.	.	.	.	.	.
.	.	.	16aa\Jk	.	.	.	.	.	.	.	.	.	.	.	.	.	.	.
!	!	!	!	!	!	!	!	!	!	!	!	!	!LO:LB:g=original	!	!	!	!	!
=85	=85	=85	=85	=85	=85	=85	=85	=85	=85	=85	=85	=85	=85	=85	=85	=85	=85	=85
!	!	!	!	!	!LO:TX:a:t=P:problem: klamra łukowa	!	!	!	!	!	!	!	!	!	!LO:TX:a:t=1.	!	!LO:TX:a:t=1.	!
4AA/	6 4	4AA/	8.dd\L	.	12ff#\L	.	2A\	non	2A/	non	8f#\	su-	8dd\	su-	2.r	.	2.r	.
.	.	.	.	.	12a\	.	.	.	.	.	.	.	.	.	.	.	.	.
.	.	.	.	.	.	.	.	.	.	.	8f#\	-a	8dd\	-a	.	.	.	.
.	.	.	.	.	12ff#\J|	.	.	.	.	.	.	.	.	.	.	.	.	.
.	.	.	16aa\Jk	.	.	.	.	.	.	.	.	.	.	.	.	.	.	.
!	!	!	!	!	!LO:TX:a:t=P:problem: klamra łukowa	!	!	!	!	!	!	!	!	!	!	!	!	!
4AA/	5 3	4AA/	8.cc#\L	.	12ee\L	.	.	.	.	.	4e\	non	4cc#\	non	.	.	.	.
.	.	.	.	.	12a\	.	.	.	.	.	.	.	.	.	.	.	.	.
.	.	.	.	.	12ee\J|	.	.	.	.	.	.	.	.	.	.	.	.	.
.	.	.	16aa\Jk	.	.	.	.	.	.	.	.	.	.	.	.	.	.	.
4AA/	4 2	4AA/	8.b\L	.	(12dd\L	.	8A\	ma-	8A/	ma-	8d\	ma-	8b\	ma-	.	.	.	.
.	.	.	.	.	12a\)	.	.	.	.	.	.	.	.	.	.	.	.	.
.	.	.	.	.	.	.	8A\	-ni-	8A/	-ni-	8d\	-ni-	8b\	-ni-	.	.	.	.
.	.	.	.	.	12dd\J|	.	.	.	.	.	.	.	.	.	.	.	.	.
.	.	.	16aa\Jk	.	.	.	.	.	.	.	.	.	.	.	.	.	.	.
!	!	!LO:LB:g=original	!	!	!LO:LB:g=original	!	!	!	!LO:LB:g=original	!	!	!	!	!	!	!	!	!
=86	=86	=86	=86	=86	=86	=86	=86	=86	=86	=86	=86	=86	=86	=86	=86	=86	=86	=86
4AA/	3 1	4AA/	(16a\LL	.	(16cc#\LL	.	4AA/	-fe-	4A/	-fes-	4c#/	-fes-	4a\	-fes-	4r	.	4r	.
.	.	.	16b\	.	16dd\	.	.	.	.	.	.	.	.	.	.	.	.	.
.	.	.	16cc#\)	.	16ee\	.	.	.	.	.	.	.	.	.	.	.	.	.
.	.	.	16dd\JJ|	.	16ff#\JJ)	.	.	.	.	.	.	.	.	.	.	.	.	.
4C#/	6 5	4C#/	(4ee\	.	(4gg\	.	4C#/	-sta-	4A/	-ta-	4g\	-ta-	4ee\	-ta-	4ee\	.	4gg\	.
4D/	.	4D/	8.dd\L)	.	8.ff#\L)	.	4D/	-vit	4A/	-vit	4f#\	-vit	4dd\	-vit	4dd\	.	4ff#\	.
.	.	.	16ff#\Jk|	.	16ddd\Jk|	.	.	.	.	.	.	.	.	.	.	.	.	.
=87	=87	=87	=87	=87	=87	=87	=87	=87	=87	=87	=87	=87	=87	=87	=87	=87	=87	=87
4AA/	6 4	4AA/	4ff#\	.	4ddd\	.	4A\	e-	4A/	e-	4f#\	e-	4dd\	e-	4dd\	.	4ff#\	.
8A\L	5 3	8A\L	4ee\	.	4ccc#\	.	4AA/	-is	4A/	-is	4e\	-is	4cc#\	-is.	4a/	.	4ee\	.
8G\|	.	8G\|	.	.	.	.	.	.	.	.	.	.	.	.	.	.	.	.
8F#\|	.	8F#\|	4r	.	4r	.	4r	.	4r	.	4r	.	4r	.	4r	.	4r	.
8E\J|	.	8E\J|	.	.	.	.	.	.	.	.	.	.	.	.	.	.	.	.
=88	=88	=88	=88	=88	=88	=88	=88	=88	=88	=88	=88	=88	=88	=88	=88	=88	=88	=88
4D\	.	4D\	4f#/	.	4a/	.	(4D/	glo-	4.d\	Glo-	(4f#\	glo-	(4a\	glo-	4f#/	.	4a/	.
4F#\	6	4F#\	8.a\L	.	8.dd\L	.	8F#\)	.	.	.	8a\)	.	8dd\)	.	8.a\L	.	8.dd\L	.
.	.	.	.	.	.	.	8F#\	-ri-	8d\	-ri-	8a\	-ri-	8dd\	-ri-	.	.	.	.
.	.	.	16dd\K	.	16ff#\K	.	.	.	.	.	.	.	.	.	16dd\Jk	.	16ff#\K	.
4A\	7	4A\	8.cc#\	.	8.ee\	.	4A\	-a	4c#\	-a	4a\	-a	4ee\	-a	8.a\L	.	8.ee\	.
.	.	.	16ee\Jk	.	16gg\Jk	.	.	.	.	.	.	.	.	.	16ee\Jk	.	16gg\Jk	.
=89	=89	=89	=89	=89	=89	=89	=89	=89	=89	=89	=89	=89	=89	=89	=89	=89	=89	=89
*	*	*	*tuplet	*	*	*	*	*	*	*	*	*	*	*	*	*	*	*
!	!	!	!LO:TX:a:t=P:problem: klamra łukowa	!	!LO:TX:a:t=P:problem: klamra łukowa	!	!	!	!	!	!	!	!	!	!	!	!	!
!	!	!	!LO:TUP:a	!	!	!	!	!	!	!	!	!	!	!	!	!	!	!
4d\	.	4d\	12dd\L	.	12ff#\L	.	2d\	Pa-	2d\	Pa-	2a\	Pa-	2ff#\	Pa-	8.dd\L	.	8.ff#\L	.
.	.	.	12gg\	.	12bb\	.	.	.	.	.	.	.	.	.	.	.	.	.
.	.	.	12ff#\J	.	12aa\J	.	.	.	.	.	.	.	.	.	.	.	.	.
.	.	.	.	.	.	.	.	.	.	.	.	.	.	.	16ee\Jk	.	16gg\Jk	.
.	.	.	8qqgg/	.	8qqbb/	.	.	.	.	.	.	.	.	.	.	.	.	.
8r	.	8r	2ff#\	.	2aa\	.	.	.	.	.	.	.	.	.	2ff#\	.	2aa\	.
8d\L|	.	8d\L|	.	.	.	.	.	.	.	.	.	.	.	.	.	.	.	.
8A\|	.	8A\|	.	.	.	.	4D/	-tri	4d\	-tri	4a\	-tri	4ff#\	-tri	.	.	.	.
8F#\J|	.	8F#\J|	.	.	.	.	.	.	.	.	.	.	.	.	.	.	.	.
=90	=90	=90	=90	=90	=90	=90	=90	=90	=90	=90	=90	=90	=90	=90	=90	=90	=90	=90
4D\	.	4D\	4f#/	.	4a/	.	(4D/	glo-	4.d\	glo-	(4f#\	glo-	(4a\	glo-	4f#/	.	4a/	.
4F#\	6	4F#\	8.a\L	.	8.dd\L	.	8F#\)	.	.	.	8a\)	.	8dd\)	.	8.a/L	.	8.dd\L	.
.	.	.	.	.	.	.	8F#\	-ri-	8d\	-ri-	8a\	-ri-	8dd\	-ri-	.	.	.	.
.	.	.	16dd\Jk	.	16ff#\K	.	.	.	.	.	.	.	.	.	16dd/Jk	.	16ff#\K	.
4A\	7	4A\	8.cc#\L	.	8.ee\	.	4A\	-a	4c#\	-a	4a\	-a	4ee\	-a	8.a/L	.	8.ee\	.
.	.	.	16ee\Jk	.	16gg\Jk	.	.	.	.	.	.	.	.	.	16ee/Jk	.	16gg\Jk	.
!LO:LB:g=original	!	!	!LO:LB:g=original	!	!	!	!LO:LB:g=original	!	!	!	!LO:LB:g=original	!	!LO:LB:g=original	!	!	!	!	!
=91	=91	=91	=91	=91	=91	=91	=91	=91	=91	=91	=91	=91	=91	=91	=91	=91	=91	=91
4d\	9	4d\	(4ee\	.	(4.ff#\	.	4.d\	Fi-	4.d\	Fi-	4.a\	Fi-	4.ff#\	Fi-	4ee\	.	2ff#\	.
4D\	8	4D/	4dd\)	.	.	.	.	.	.	.	.	.	.	.	4dd\	.	.	.
.	.	.	.	.	16gg#X\LL	.	8D/	-li-	8d\	-li-	8a\	-li-	8ff#\	-li-	.	.	.	.
.	.	.	.	.	16aa\JJ)	.	.	.	.	.	.	.	.	.	.	.	.	.
4A\	.	4A\	4cc#\|	.	4ee\|	.	4A\	-o	4c#\	-o	4a\	-o	4ee\	-o	4a/	.	4ee\	.
!	!	!	!	!	!	!	!	!	!	!	!	!	!	!	!	!	!LO:LB:g=original	!
=92	=92	=92	=92	=92	=92	=92	=92	=92	=92	=92	=92	=92	=92	=92	=92	=92	=92	=92
!	!	!	!	!	!	!	!	!	!	!	!	!	!	!	!LO:TX:a:t=2.	!	!LO:TX:a:t=2.	!
2B\	6	2B\	2dd\	.	(4ggn\	.	2B\	et	2d\	et	4r	.	(4gg\	et	1.r	.	1.r	.
.	4| 3	.	.	.	4ee#X\	.	.	.	.	.	4g#X\	et	4ee#X\)	.	.	.	.	.
4A\	6	4A\	4cc#\	.	4ff#\)|	.	4A\	ſpi-	4c#\	Spi-	4a\	Spi-	4ff#\|	Spi-	.	.	.	.
=93	=93	=93	=93	=93	=93	=93	=93	=93	=93	=93	=93	=93	=93	=93	=93	=93	=93	=93
2G\	6	2G\	2b/	.	(4een\	.	4.G\	-ri-	4.B\	-ri-	4.e\	-ri-	4.een\	-ri-	.	.	.	.
.	4 3	.	.	.	4cc#\	.	.	.	.	.	.	.	.	.	.	.	.	.
.	.	.	.	.	.	.	8G\	-tu-	8B\	-tu-	8e\	-tu	8cc#\	-tu-	.	.	.	.
4F#\	6	4F#\	4a/	.	4dd\)|	.	4F#\	-i	4A/	-i	4f#\	i	4dd\	-i	.	.	.	.
=94	=94	=94	=94	=94	=94	=94	=94	=94	=94	=94	=94	=94	=94	=94	=94	=94	=94	=94
!	!	!	!	!	!LO:TX:a:t=P:problem: klamra łukowa	!	!	!	!	!	!	!	!	!	!	!	!	!
4G\	6	4G\	(8b/L	.	12ee\L	.	2G\	San-	(4G/	San-	2.e\	San-	2b\	San-	2ee\	.	2gg\	.
.	.	.	.	.	12gg\	.	.	.	.	.	.	.	.	.	.	.	.	.
.	.	.	8g/J)	.	.	.	.	.	.	.	.	.	.	.	.	.	.	.
.	.	.	.	.	12bb\J	.	.	.	.	.	.	.	.	.	.	.	.	.
.	.	.	8qqf#/	.	.	.	.	.	.	.	.	.	.	.	.	.	.	.
4GG/	.	4GG/	2eT/	.	4b\	.	.	.	4B\)	.	.	.	.	.	.	.	.	.
!	!	!	!	!	!	!	!	!	!	!	!	!	!	!	!LO:TX:a:t=P:problem:mixed beam	!	!	!
4AA/	.	4AA/	.	.	4cc#t\	.	4A\	.	4A/	.	.	.	4cc#t\	.	8dd\L	.	8ff#\L	.
.	.	.	.	.	.	.	.	.	.	.	.	.	.	.	8a/J	.	8ee\J	.
!	!	!	!	!	!LO:LB:g=original	!	!	!	!	!	!	!	!	!	!	!	!	!
=95	=95	=95	=95	=95	=95	=95	=95	=95	=95	=95	=95	=95	=95	=95	=95	=95	=95	=95
!	!	!	!	!	!LO:TX:a:t=P:problem: klamra łukowa	!	!	!	!	!	!	!	!	!	!	!	!	!
2D\	.	2D/	4d/	.	12dd\L	.	2D/	-cto	2A/	-cto	2f#\	-cto	2dd\	-cto	4f#/	.	4dd\	.
.	.	.	.	.	12ee\	.	.	.	.	.	.	.	.	.	.	.	.	.
.	.	.	.	.	12ff#\J	.	.	.	.	.	.	.	.	.	.	.	.	.
!	!	!	!LO:TX:a:t=P:problem: klamra łukowa	!	!LO:TX:a:t=P:problem: klamra łukowa	!	!	!	!	!	!	!	!	!	!	!	!	!
!	!	!	!LO:TUP:a	!	!	!	!	!	!	!	!	!	!	!	!	!	!	!
.	.	.	12dd\L	.	12ff#\L	.	.	.	.	.	.	.	.	.	8f#/L	.	8a/L	.
.	.	.	12ee\	.	12gg\	.	.	.	.	.	.	.	.	.	.	.	.	.
.	.	.	.	.	.	.	.	.	.	.	.	.	.	.	8f#/J	.	8a/J	.
.	.	.	12ff#\J	.	12aa\J	.	.	.	.	.	.	.	.	.	.	.	.	.
!	!	!	!LO:TX:a:t=P:problem: klamra łukowa	!	!LO:TX:a:t=P:problem: klamra łukowa	!	!	!	!	!	!	!	!	!	!	!	!	!
!	!	!	!LO:TUP:a	!	!	!	!	!	!	!	!	!	!	!	!	!	!	!
4D\	n7r	4D/	12ff#\L	.	12a\L	.	4r	.	4r	.	4r	.	4r	.	4f#/	.	4a/	.
.	.	.	12gg\	.	12b\	.	.	.	.	.	.	.	.	.	.	.	.	.
.	.	.	12aa\J	.	12ccn\J	.	.	.	.	.	.	.	.	.	.	.	.	.
!	!	!LO:LB:g=original	!	!	!	!	!	!	!LO:LB:g=original	!	!	!	!	!	!	!	!	!
=96	=96	=96	=96	=96	=96	=96	=96	=96	=96	=96	=96	=96	=96	=96	=96	=96	=96	=96
!	!	!	!	!	!	!	!	!	!	!	!	!	!	!	!LO:TX:a:t=2.	!	!	!
4G\	.	4G\	4dd\	.	12b\L	.	2G\	si-	2G/	Si-	2d\	si-	2b\	si-	1.r	.	2.dd\	.
.	.	.	.	.	12dd\	.	.	.	.	.	.	.	.	.	.	.	.	.
.	.	.	.	.	12ccn\J	.	.	.	.	.	.	.	.	.	.	.	.	.
4G\	.	4G\	2d/	.	12b/L	.	.	.	.	.	.	.	.	.	.	.	.	.
.	.	.	.	.	12a/	.	.	.	.	.	.	.	.	.	.	.	.	.
.	.	.	.	.	12g/J	.	.	.	.	.	.	.	.	.	.	.	.	.
4G\	.	4G\	.	.	12f#/L	.	4G\	-cut	4G/	-cut	4d\	-cut	4b\	-cut	.	.	.	.
.	.	.	.	.	12e/	.	.	.	.	.	.	.	.	.	.	.	.	.
.	.	.	.	.	12d/J	.	.	.	.	.	.	.	.	.	.	.	.	.
=97	=97	=97	=97	=97	=97	=97	=97	=97	=97	=97	=97	=97	=97	=97	=97	=97	=97	=97
4GG/	6	4GG/	12e/L	.	4b/	.	4G\	e-	4B\	e-	4e\	e-	4b\	e-	.	.	2.ee\	.
.	.	.	12g/	.	.	.	.	.	.	.	.	.	.	.	.	.	.	.
.	.	.	12f#/J	.	.	.	.	.	.	.	.	.	.	.	.	.	.	.
4GG/	.	4GG/	12e/L	.	2bT/	.	2G\	-rat	2B\	-rat	2e\	-rat	2b\	-rat	.	.	.	.
.	.	.	12d/	.	.	.	.	.	.	.	.	.	.	.	.	.	.	.
.	.	.	12c#/J	.	.	.	.	.	.	.	.	.	.	.	.	.	.	.
4GG/	.	4GG/	12B/L	.	.	.	.	.	.	.	.	.	.	.	.	.	.	.
.	.	.	12A/	.	.	.	.	.	.	.	.	.	.	.	.	.	.	.
.	.	.	12G/J	.	.	.	.	.	.	.	.	.	.	.	.	.	.	.
!	!	!	!	!	!	!	!	!	!	!	!	!	!LO:LB:g=original	!	!	!	!	!
=98	=98	=98	=98	=98	=98	=98	=98	=98	=98	=98	=98	=98	=98	=98	=98	=98	=98	=98
4AA/	5 #	4AA/	4e/	.	12cc#X\L	.	2A\	in	2A/	in	2e\	in	2cc#\	in	2.a/	.	2.ee\	.
.	.	.	.	.	12ee\	.	.	.	.	.	.	.	.	.	.	.	.	.
.	.	.	.	.	12dd\J	.	.	.	.	.	.	.	.	.	.	.	.	.
4AA/	.	4AA/	2e/	.	12cc#\L	.	.	.	.	.	.	.	.	.	.	.	.	.
.	.	.	.	.	12b\	.	.	.	.	.	.	.	.	.	.	.	.	.
.	.	.	.	.	12a\J	.	.	.	.	.	.	.	.	.	.	.	.	.
4AA/	.	4AA/	.	.	12g/L	.	4A\	prin-	4A/	prin-	4e\	prin-	4cc#\	prin-	.	.	.	.
.	.	.	.	.	12f#/	.	.	.	.	.	.	.	.	.	.	.	.	.
.	.	.	.	.	12e/J	.	.	.	.	.	.	.	.	.	.	.	.	.
!	!	!	!	!	!	!	!LO:LB:g=original	!	!	!	!LO:LB:g=original	!	!	!	!	!	!	!
=99	=99	=99	=99	=99	=99	=99	=99	=99	=99	=99	=99	=99	=99	=99	=99	=99	=99	=99
4A\	6	4A\	12f#/L	.	4cc#\	.	4.A\	-ci-	4.c#\	-ci-	4.f#\	-ci-	4.cc#\	-ci-	2.a/	.	2.ff#\	.
.	.	.	12a/	.	.	.	.	.	.	.	.	.	.	.	.	.	.	.
.	.	.	12g/J	.	.	.	.	.	.	.	.	.	.	.	.	.	.	.
4A\	.	4A\	12f#/L	.	2cc#t\	.	.	.	.	.	.	.	.	.	.	.	.	.
.	.	.	12e/	.	.	.	.	.	.	.	.	.	.	.	.	.	.	.
.	.	.	.	.	.	.	8A\	-pi-	8c#\	-pi-	8f#\	-pi-	8cc#\	-pi-	.	.	.	.
.	.	.	12d/J	.	.	.	.	.	.	.	.	.	.	.	.	.	.	.
4A\	.	4A\	12c#/L	.	.	.	4A\	-o	4c#\	-o	4f#\	-o	4cc#\	-o	.	.	.	.
.	.	.	12B/	.	.	.	.	.	.	.	.	.	.	.	.	.	.	.
.	.	.	12A/J	.	.	.	.	.	.	.	.	.	.	.	.	.	.	.
!LO:LB:g=original	!	!	!	!	!	!	!	!	!	!	!	!	!	!	!LO:LB:g=original	!	!	!
=100	=100	=100	=100	=100	=100	=100	=100	=100	=100	=100	=100	=100	=100	=100	=100	=100	=100	=100
4B\	5	4B\	4f#/	.	12dd\L	.	2B\	nunc	2B\	nunc	2f#\	nunc	2dd\	nunc	2.dd\	.	2.ff#\	.
.	.	.	.	.	12ff#\	.	.	.	.	.	.	.	.	.	.	.	.	.
.	.	.	.	.	12ee\J	.	.	.	.	.	.	.	.	.	.	.	.	.
4B\	.	4B\	2f#/	.	12dd\L	.	.	.	.	.	.	.	.	.	.	.	.	.
.	.	.	.	.	12cc#\	.	.	.	.	.	.	.	.	.	.	.	.	.
.	.	.	.	.	12b\J	.	.	.	.	.	.	.	.	.	.	.	.	.
4B\	.	4B\	.	.	12a/L	.	4B\	et	4B\	et	4f#\	et	4dd\	et	.	.	.	.
.	.	.	.	.	12g/	.	.	.	.	.	.	.	.	.	.	.	.	.
.	.	.	.	.	12f#/J	.	.	.	.	.	.	.	.	.	.	.	.	.
=101	=101	=101	=101	=101	=101	=101	=101	=101	=101	=101	=101	=101	=101	=101	=101	=101	=101	=101
4BB/	6	4BB/	12g/L	.	4dd\	.	2B\	sem-	2d\	sem-	2g\	sem-	2dd\	sem-	2.dd\	.	2.gg\	.
.	.	.	12b/	.	.	.	.	.	.	.	.	.	.	.	.	.	.	.
.	.	.	12a/J	.	.	.	.	.	.	.	.	.	.	.	.	.	.	.
.	.	.	.	.	8qqee/	.	.	.	.	.	.	.	.	.	.	.	.	.
4BB/	.	4BB/	12g/L	.	2ddT\	.	.	.	.	.	.	.	.	.	.	.	.	.
.	.	.	12f#/	.	.	.	.	.	.	.	.	.	.	.	.	.	.	.
.	.	.	12e/J	.	.	.	.	.	.	.	.	.	.	.	.	.	.	.
4BB/	.	4BB/	12d/L	.	.	.	4B\	-per	4d\	-per	4g\	-per	4dd\	-per	.	.	.	.
.	.	.	12c#/	.	.	.	.	.	.	.	.	.	.	.	.	.	.	.
.	.	.	12B/J	.	.	.	.	.	.	.	.	.	.	.	.	.	.	.
!	!	!	!	!	!LO:LB:g=original	!	!	!	!	!	!	!	!	!	!	!	!	!
=102	=102	=102	=102	=102	=102	=102	=102	=102	=102	=102	=102	=102	=102	=102	=102	=102	=102	=102
4C#/	5	4C#/	4g/	.	12ee\L	.	2c#\	et	2c#\	et	4g\	et	4ee\	et	2.ee\	.	[2.gg\	.
.	.	.	.	.	12gg\	.	.	.	.	.	.	.	.	.	.	.	.	.
.	.	.	.	.	12ff#\J	.	.	.	.	.	.	.	.	.	.	.	.	.
4C#/	.	4C#/	2g/	.	12ee\L	.	.	.	.	.	2g\	in	2ee\	in	.	.	.	.
.	.	.	.	.	12dd\	.	.	.	.	.	.	.	.	.	.	.	.	.
.	.	.	.	.	12cc#\J	.	.	.	.	.	.	.	.	.	.	.	.	.
4C#/	.	4C#/	.	.	12b/L	.	4c#\	in	4c#\	in	.	.	.	.	.	.	.	.
.	.	.	.	.	12a/	.	.	.	.	.	.	.	.	.	.	.	.	.
.	.	.	.	.	12g/J	.	.	.	.	.	.	.	.	.	.	.	.	.
=103	=103	=103	=103	=103	=103	=103	=103	=103	=103	=103	=103	=103	=103	=103	=103	=103	=103	=103
4c#\	6	4c#\	12a\L	.	4ee\	.	4.c#\	sae-	4.e\	sae-	4.a\	sae-	4.ee\	sae-	2.ee\	.	2.gg\]	.
.	.	.	12cc#\	.	.	.	.	.	.	.	.	.	.	.	.	.	.	.
.	.	.	12b\J	.	.	.	.	.	.	.	.	.	.	.	.	.	.	.
4c#\	.	4c#\	12a/L	.	2eeT\	.	.	.	.	.	.	.	.	.	.	.	.	.
.	.	.	12g/	.	.	.	.	.	.	.	.	.	.	.	.	.	.	.
.	.	.	.	.	.	.	8c#\	-cu-	8e\	-cu-	8a\	-cu-	8ee\	-cu-	.	.	.	.
.	.	.	12f#/J	.	.	.	.	.	.	.	.	.	.	.	.	.	.	.
4c#\	.	4c#\	12e/L	.	.	.	4c#\	-la	4e\	-la	4a\	-la	4ee\	-la	.	.	.	.
.	.	.	12d/	.	.	.	.	.	.	.	.	.	.	.	.	.	.	.
.	.	.	12c#/J	.	.	.	.	.	.	.	.	.	.	.	.	.	.	.
=104	=104	=104	=104	=104	=104	=104	=104	=104	=104	=104	=104	=104	=104	=104	=104	=104	=104	=104
4d\	.	4d\	4a/	.	4ff#\	.	(4d\	sae-	2d\	sae-	2a\	sae-	2ff#\	sae-	4a/	.	4ff#\	.
!	!	!	!LO:TX:a:t=P:problem: klamra łukowa	!	!LO:TX:a:t=P:problem: klamra łukowa	!	!	!	!	!	!	!	!	!	!LO:TX:a:t=P:problem:mixed beam	!	!	!
4F#\	6	4F#\	12ff#\L	.	12aa\L	.	4F#\)	.	.	.	.	.	.	.	8ff#\L	.	8aa\L	.
.	.	.	12ee\	.	12gg\	.	.	.	.	.	.	.	.	.	.	.	.	.
.	.	.	.	.	.	.	.	.	.	.	.	.	.	.	8dd\	.	8ff#\	.
.	.	.	12dd\J	.	12ff#\J	.	.	.	.	.	.	.	.	.	.	.	.	.
!	!	!	!LO:TX:a:t=P:problem: klamra łukowa	!	!LO:TX:a:t=P:problem: klamra łukowa	!	!	!	!	!	!	!	!	!	!	!	!	!
4A\	7	4A\	12ee\L	.	12gg\L	.	4A\	-cu-	4c#\	-cu-	4a\	-cu-	4ee\	-cu-	8ee\	.	8gg\	.
.	.	.	12dd\	.	12ff#\	.	.	.	.	.	.	.	.	.	.	.	.	.
.	.	.	.	.	.	.	.	.	.	.	.	.	.	.	8a/J	.	8ee\J	.
.	.	.	12cc#\J	.	12ee\J	.	.	.	.	.	.	.	.	.	.	.	.	.
=105	=105	=105	=105	=105	=105	=105	=105	=105	=105	=105	=105	=105	=105	=105	=105	=105	=105	=105
4D\	.	4D\	4a/	.	4ff#\	.	(4D\	-lo-	2d\	-lo-	2a\	-lo-	2ff#\	-lo-	4a/	.	4ff#\	.
!	!	!	!LO:TX:a:t=P:problem: klamra łukowa	!	!LO:TX:a:t=P:problem: klamra łukowa	!	!	!	!	!	!	!	!	!	!	!	!	!
!	!	!	!LO:TUP:a	!	!	!	!	!	!	!	!	!	!	!	!	!	!	!
4F#\	6	4F#\	12ff#\L	.	12aa\L	.	4F#\)	.	.	.	.	.	.	.	8ff#\L	.	8aa\L	.
.	.	.	12ee\	.	12gg\	.	.	.	.	.	.	.	.	.	.	.	.	.
.	.	.	.	.	.	.	.	.	.	.	.	.	.	.	8dd\J	.	8ff#\	.
.	.	.	12dd\J	.	12ff#\J	.	.	.	.	.	.	.	.	.	.	.	.	.
!	!	!	!LO:TX:a:t=P:problem: klamra łukowa	!	!LO:TX:a:t=P:problem: klamra łukowa	!	!	!	!	!	!	!	!	!	!	!	!	!
!	!	!	!LO:TUP:a	!	!	!	!	!	!	!	!	!	!	!	!	!	!	!
4A\	7	4A\	12ee\L	.	12gg\L	.	4A\	-rum	4c#\	-rum	4a\	-rum	4ee\	-rum	4ee\	.	8gg\	.
.	.	.	12dd\	.	12ff#\	.	.	.	.	.	.	.	.	.	.	.	.	.
.	.	.	.	.	.	.	.	.	.	.	.	.	.	.	.	.	8ee\J	.
.	.	.	12cc#\J	.	12ee\J	.	.	.	.	.	.	.	.	.	.	.	.	.
=106	=106	=106	=106	=106	=106	=106	=106	=106	=106	=106	=106	=106	=106	=106	=106	=106	=106	=106
!	!	!	!	!	!LO:TX:a:t=P:problem: klamra łukowa	!	!	!	!	!	!	!	!LO:TX:a:t=P:problem:klamra łukowa	!	!	!	!	!
4d\	.	4d\	4dd\	.	12ff#\L	.	4d\	a-	4d\	a-	2.a\	a-	12ff#\L	a-	4dd\	.	4ff#\	.
.	.	.	.	.	12ee\	.	.	.	.	.	.	.	12ee\	.	.	.	.	.
.	.	.	.	.	12dd\J	.	.	.	.	.	.	.	12dd\J	.	.	.	.	.
4A\	.	4A\	2cc#t\	.	2eeT\	.	(4A\	.	2c#\	.	.	.	2eeT\	.	4.a/	.	4.ee\	.
4G\	4 2	4G\	.	.	.	.	4G\)	.	.	.	.	.	.	.	.	.	.	.
.	.	.	.	.	.	.	.	.	.	.	.	.	.	.	8a/	.	8ee\	.
!	!	!LO:LB:g=original	!	!	!	!	!LO:LB:g=original	!	!	!	!	!	!	!	!	!	!	!
=107	=107	=107	=107	=107	=107	=107	=107	=107	=107	=107	=107	=107	=107	=107	=107	=107	=107	=107
4F#\	6	4F#\	2.a/	.	8dd\L|	.	2.F#\	-men	2.d\	-men	2d\	-men	2.dd\	-men	4f#/	.	4dd\	.
.	.	.	.	.	(8ddd\	.	.	.	.	.	.	.	.	.	.	.	.	.
4F#\	.	4F#\	.	.	8ccc#\	.	.	.	.	.	.	.	.	.	4r	.	4r	.
.	.	.	.	.	8ddd\	.	.	.	.	.	.	.	.	.	.	.	.	.
4F#\	.	4F#\	.	.	8ccc#\	.	.	.	.	.	4f#\	a-	.	.	4r	.	4r	.
.	.	.	.	.	8ddd\J)	.	.	.	.	.	.	.	.	.	.	.	.	.
!	!	!	!	!	!	!	!	!	!LO:LB:g=original	!	!LO:LB:g=original	!	!	!	!	!	!	!
=108	=108	=108	=108	=108	=108	=108	=108	=108	=108	=108	=108	=108	=108	=108	=108	=108	=108	=108
!	!	!	!	!	!	!	!	!	!	!	!	!	!	!	!LO:TX:a:t=4.	!	!LO:TX:a:t=4.	!
4G\	6 5	4G\	2.b/	.	8ee\L|	.	2.G\	a-	2.B\	a-	2.e\	.	[2.dd\	a-	0.r	.	0.r	.
.	.	.	.	.	(8ddd\	.	.	.	.	.	.	.	.	.	.	.	.	.
4GG/	.	4GG/	.	.	8ccc#\	.	.	.	.	.	.	.	.	.	.	.	.	.
.	.	.	.	.	8ddd\	.	.	.	.	.	.	.	.	.	.	.	.	.
4GG/	.	4GG/	.	.	8ccc#\	.	.	.	.	.	.	.	.	.	.	.	.	.
.	.	.	.	.	8ddd\J)	.	.	.	.	.	.	.	.	.	.	.	.	.
!LO:LB:g=original	!	!	!	!	!	!	!	!	!	!	!	!	!	!	!	!	!	!
=109	=109	=109	=109	=109	=109	=109	=109	=109	=109	=109	=109	=109	=109	=109	=109	=109	=109	=109
4AA/	6 4	4AA/	8r	.	8ff#\L|	.	2.A\	.	2.A/	.	2.f#\	.	2.dd\_	.	.	.	.	.
.	.	.	(8ff#\L	.	(8ddd\	.	.	.	.	.	.	.	.	.	.	.	.	.
4AA/	.	4AA/	8ee\	.	8ccc#\	.	.	.	.	.	.	.	.	.	.	.	.	.
.	.	.	8ff#\	.	8ddd\	.	.	.	.	.	.	.	.	.	.	.	.	.
4AA/	.	4AA/	8ee\	.	8ccc#\	.	.	.	.	.	.	.	.	.	.	.	.	.
.	.	.	8ff#\J)	.	8ddd\J)	.	.	.	.	.	.	.	.	.	.	.	.	.
=110	=110	=110	=110	=110	=110	=110	=110	=110	=110	=110	=110	=110	=110	=110	=110	=110	=110	=110
4BB/	6	4BB/	2.gg\	.	8gg\L|	.	2.B\	.	[2.d\	.	2.g\	.	2.dd\_	.	.	.	.	.
.	.	.	.	.	(8ddd\	.	.	.	.	.	.	.	.	.	.	.	.	.
4BB/	.	4BB/	.	.	8ccc#\	.	.	.	.	.	.	.	.	.	.	.	.	.
.	.	.	.	.	8ddd\	.	.	.	.	.	.	.	.	.	.	.	.	.
4BB/	.	4BB/	.	.	8ccc#\	.	.	.	.	.	.	.	.	.	.	.	.	.
.	.	.	.	.	8ddd\J)	.	.	.	.	.	.	.	.	.	.	.	.	.
!	!	!	!	!	!LO:LB:g=original	!	!	!	!	!	!	!	!	!	!	!	!	!
=111	=111	=111	=111	=111	=111	=111	=111	=111	=111	=111	=111	=111	=111	=111	=111	=111	=111	=111
4BB-X/	6|	4BB-X/	2.gg#X\	.	8gg#X\L|	.	2.B-X\	.	2.d\]	.	2.g#X\	.	2.dd\]	.	.	.	.	.
.	.	.	.	.	(8ddd\	.	.	.	.	.	.	.	.	.	.	.	.	.
4BB-/	.	4BB-/	.	.	8ccc#\	.	.	.	.	.	.	.	.	.	.	.	.	.
.	.	.	.	.	8ddd\	.	.	.	.	.	.	.	.	.	.	.	.	.
4BB-/	.	4BB-/	.	.	8ccc#\	.	.	.	.	.	.	.	.	.	.	.	.	.
.	.	.	.	.	8ddd\J)	.	.	.	.	.	.	.	.	.	.	.	.	.
=112	=112	=112	=112	=112	=112	=112	=112	=112	=112	=112	=112	=112	=112	=112	=112	=112	=112	=112
!	!	!	!LO:TX:a:t=P:problem: klamra łukowa	!	!LO:TX:a:t=P:problem: klamra łukowa	!	!	!	!	!	!	!	!	!	!	!	!	!
!	!	!	!LO:TUP:a	!	!	!	!	!	!	!	!	!	!	!	!	!	!	!
4AA/	#	4AA/	12aa\L	.	12ccc#\L	.	4A\	-men	4e\	.	4a\	-men	4cc#\	-men	4a/	.	4ee\	.
.	.	.	12bb\	.	12ddd\	.	.	.	.	.	.	.	.	.	.	.	.	.
.	.	.	12ccc#\J	.	12eee\J	.	.	.	.	.	.	.	.	.	.	.	.	.
*	*	*	*	*	*	*	*	*ij	*	*	*	*	*	*	*	*	*	*
4C#/	6 5	4C#/	(4.ee\	.	(4.ggn\	.	4C#/	a-	2A/	-men	(4.gn\	a-	(4.ee\	a-	4r	.	4r	.
4D/	.	4D/	.	.	.	.	4D/	-men	.	.	.	.	.	.	4a/	.	4ff#\	.
.	.	.	8dd\)	.	8ff#\)	.	.	.	.	.	8f#\)	.	8dd\)	.	.	.	.	.
=113	=113	=113	=113	=113	=113	=113	=113	=113	=113	=113	=113	=113	=113	=113	=113	=113	=113	=113
!	!	!	!LO:TX:a:t=P:problem: klamra łukowa	!	!LO:TX:a:t=P:problem: klamra łukowa	!	!	!	!	!	!	!	!	!	!	!	!	!
!	!	!	!LO:TUP:a	!	!	!	!	!	!	!	!	!	!	!	!	!	!	!
4r	.	4r	12aa\L	.	12ccc#\L	.	4r	.	4r	.	4e\	.	4cc#\	.	4a/	.	4ee\	.
.	.	.	12bb\	.	12ddd\	.	.	.	.	.	.	.	.	.	.	.	.	.
.	.	.	12ccc#\J	.	12eee\J	.	.	.	.	.	.	.	.	.	.	.	.	.
.	.	.	.	.	8qqaa/	.	.	.	.	.	.	.	.	.	.	.	.	.
*	*	*	*	*	*	*	*	*	*	*ij	*	*	*	*	*	*	*	*
4C#/	6 5	4C#/	(4.ee\	.	(4.gg\	.	4C#/	a-	4A/	a-	(4.g\	.	(4.ee\	.	4r	.	4r	.
4D/	.	4D/	.	.	.	.	4D/	-men	4A/	-men	.	.	.	.	4a/	.	4ff#\	.
*	*	*	*	*	*	*	*	*Xij	*	*Xij	*	*	*	*	*	*	*	*
.	.	.	8dd\)	.	8ff#\)	.	.	.	.	.	8f#\)	.	8dd\)	.	.	.	.	.
!	!	!	!LO:LB:g=original	!	!	!	!	!	!	!	!	!	!	!	!	!	!LO:LB:g=original	!
=114	=114	=114	=114	=114	=114	=114	=114	=114	=114	=114	=114	=114	=114	=114	=114	=114	=114	=114
*	*	*	*	*	*tuplet	*	*	*	*	*	*	*	*	*	*	*	*	*
!	!	!	!	!	!LO:TX:a:t=P:problem: klamra łukowa	!	!	!	!	!	!LO:TX:a:t=P:problem: klamra łukowa	!	!	!	!	!	!	!
!	!	!	!	!	!LO:TUP:a	!	!	!	!	!	!	!	!	!	!	!	!	!
4G\	6 5	4G\	8.dd\L	.	12bb\L	.	4G\	a-	4B\	a-	12b\L	.	4dd\	-men	4ee\	.	4gg\	.
.	.	.	.	.	12aa\	.	.	.	.	.	12a\	.	.	.	.	.	.	.
.	.	.	.	.	12gg\J	.	.	.	.	.	12g\J	.	.	.	.	.	.	.
.	.	.	16b\Jk	.	.	.	.	.	.	.	.	.	.	.	.	.	.	.
.	.	.	.	.	8qqff#/	.	.	.	.	.	8qqf#/	.	.	.	.	.	8qqff#/	.
4A\	.	4A\	2cc#t\	.	2eeT\	.	4A\	.	2A/	.	2eT\	.	2cc#\	a-	4a/	.	2eeT\	.
4AA/	.	4AA/	.	.	.	.	4AA/	.	.	.	.	.	.	.	4a/	.	.	.
!	!	!	!	!	!	!	!	!	!	!	!	!	!LO:LB:g=original	!	!	!	!	!
=115	=115	=115	=115	=115	=115	=115	=115	=115	=115	=115	=115	=115	=115	=115	=115	=115	=115	=115
4BB/	.	4BB/	4dd\	.	4dd\	.	4BB/	-men	4F#/	-men	4d\	-men	4dd\	-men	4f#/	.	4dd\	.
2C#/	7 5	2C#/	4r	.	4r	.	4.C#/	sae-	4.E/	sae-	4.b\	sae-	4.gg\	sae-	4r	.	4r	.
.	.	.	4r	.	4r	.	.	.	.	.	.	.	.	.	4r	.	4r	.
.	.	.	.	.	.	.	8C#/	-cu-	8E/	-cu-	8b\	-cu-	8gg\	-cu-	.	.	.	.
!	!	!	!	!	!	!	!LO:LB:g=original	!	!	!	!LO:LB:g=original	!	!	!	!	!	!	!
=116	=116	=116	=116	=116	=116	=116	=116	=116	=116	=116	=116	=116	=116	=116	=116	=116	=116	=116
!	!	!	!	!	!LO:TX:a:t=2.	!	!	!	!	!	!	!	!	!	!LO:TX:a:t=2.	!	!	!
!	!	!	!LO:TX:a:t=2.	!	!LO:TX:b:i:t=Volti.	!	!	!	!	!	!	!	!	!	!	!	!LO:TX:a:t=2.	!
4D\	.	4D\	1.r	.	1.r	.	(4D\	-lo-	(4F#/	-lo-	(4a\	-lo-	(4ff#\	-lo-	1.r	.	1.r	.
4E\	6	4E\	.	.	.	.	4E\)	.	4G/)	.	4g\)	.	4ee\)	.	.	.	.	.
!	!	!LO:TX:b:i:t=Seq(ue) Cito	!	!	!	!	!	!	!	!	!	!	!	!	!	!	!	!
4F#\	6	4F#\	.	.	.	.	4F#\	-rum	4A/	-rum	4f#\	-rum	4dd\	-rum	.	.	.	.
!	!	!LO:PB:g=original	!	!	!	!	!	!	!	!	!	!	!	!	!	!	!	!
=117	=117	=117	=117	=117	=117	=117	=117	=117	=117	=117	=117	=117	=117	=117	=117	=117	=117	=117
4G\	6	4G\	.	.	.	.	(4G\	a-	4B\	a-	8b\L	a-	4ee\	a-	.	.	.	.
.	.	.	.	.	.	.	.	.	.	.	8g\J	.	.	.	.	.	.	.
4A\	6 4	4A\	.	.	.	.	4A\)	.	2A/	.	4f#\	.	(4dd\	.	.	.	.	.
4AA/	5 3	4AA/	.	.	.	.	4AA/	.	.	.	4eT\	.	4cc#\)	.	.	.	.	.
!LO:PB:g=original	!	!	!	!	!LO:PB:g=original	!	!	!	!	!	!	!	!	!	!	!	!	!
=118	=118	=118	=118	=118	=118	=118	=118	=118	=118	=118	=118	=118	=118	=118	=118	=118	=118	=118
!LO:TX:b:t=Solo.	!	!LO:TX:a:i:t=Solo.	!	!	!	!	!	!	!	!	!	!	!	!	!	!	!	!
4D\	.	4D\	4f#/	.	8r	.	4D/	-men.	4A/	-men.	4f#\	-men.	4dd\	-men.	4r	.	4r	.
.	.	.	.	.	8ddd\L|	.	.	.	.	.	.	.	.	.	.	.	.	.
4E\	6	4E\	4g/	.	(8ccc#\	.	2r	.	4r	.	4r	.	4r	.	4r	.	4r	.
.	.	.	.	.	8ddd\	.	.	.	.	.	.	.	.	.	.	.	.	.
4F#\	6	4F#\	4a/	.	8ccc#\	.	.	.	4r	.	4r	.	4r	.	4dd\	.	4aa\	.
.	.	.	.	.	8ddd\J)	.	.	.	.	.	.	.	.	.	.	.	.	.
=119	=119	=119	=119	=119	=119	=119	=119	=119	=119	=119	=119	=119	=119	=119	=119	=119	=119	=119
!	!	!	!	!	!	!	!LO:TX:a:t=7.	!	!LO:TX:a:t=7.	!	!LO:TX:a:t=7.	!	!LO:TX:a:t=7.	!	!	!	!	!
4G\	.	4G\	(4.gg\	.	(4.bb\	.	0.r	.	0.r	.	0.r	.	0.r	.	2gg\	.	2bb\	.
4GG/	.	4GG/	.	.	.	.	.	.	.	.	.	.	.	.	.	.	.	.
.	.	.	16aa\LL	.	16ccc#\LL	.	.	.	.	.	.	.	.	.	.	.	.	.
.	.	.	16bb\JJ)	.	16ddd\JJ)	.	.	.	.	.	.	.	.	.	.	.	.	.
4D/	.	4D/	4ff#\|	.	4aa\|	.	.	.	.	.	.	.	.	.	4ff#\	.	4aa\	.
!	!	!	!	!	!	!	!	!	!	!	!	!	!	!	!LO:LB:g=original	!	!	!
=120	=120	=120	=120	=120	=120	=120	=120	=120	=120	=120	=120	=120	=120	=120	=120	=120	=120	=120
4F#\	6	4F#\	4a/	.	8r	.	.	.	.	.	.	.	.	.	4r	.	4r	.
.	.	.	.	.	8ddd\L|	.	.	.	.	.	.	.	.	.	.	.	.	.
4E\	.	4E\	4g/	.	(8ccc#\	.	.	.	.	.	.	.	.	.	4r	.	4r	.
.	.	.	.	.	8ddd\	.	.	.	.	.	.	.	.	.	.	.	.	.
4D\	.	4D\	4f#/	.	8ccc#\	.	.	.	.	.	.	.	.	.	4ff#\	.	4aa\	.
.	.	.	.	.	8ddd\J)	.	.	.	.	.	.	.	.	.	.	.	.	.
=121	=121	=121	=121	=121	=121	=121	=121	=121	=121	=121	=121	=121	=121	=121	=121	=121	=121	=121
.	.	.	.	.	.	.	.	.	.	.	.	.	.	.	8qqee/	.	8qqaa/	.
4A\	7	4A\	(4.cc#\	.	(4.ee\	.	.	.	.	.	.	.	.	.	2ee\	.	2gg\	.
4AA/	.	4AA/	.	.	.	.	.	.	.	.	.	.	.	.	.	.	.	.
.	.	.	16dd\LL	.	16ff#\LL	.	.	.	.	.	.	.	.	.	.	.	.	.
.	.	.	16ee\JJ)	.	16gg\JJ)	.	.	.	.	.	.	.	.	.	.	.	.	.
4D/	.	4D/	4dd\|	.	4ff#\|	.	.	.	.	.	.	.	.	.	4dd\	.	4ff#\	.
=122	=122	=122	=122	=122	=122	=122	=122	=122	=122	=122	=122	=122	=122	=122	=122	=122	=122	=122
*	*	*	*	*	*Xtuplet	*	*	*	*	*	*	*	*	*	*	*	*	*
!	!	!	!	!	!	!	!	!	!	!	!	!	!	!	!LO:TX:a:t=1.	!	!LO:TX:a:t=1.	!
2GG/	6	2GG/	4r	.	12bb\L|	.	.	.	.	.	.	.	.	.	2.r	.	2.r	.
.	.	.	.	.	12gg\|	.	.	.	.	.	.	.	.	.	.	.	.	.
.	.	.	.	.	12dd#X\J|	.	.	.	.	.	.	.	.	.	.	.	.	.
!	!	!	!	!	!LO:TX:a:t=P:problem: klamra łukowa	!	!	!	!	!	!	!	!	!	!	!	!	!
.	.	.	4b/	.	12ee\L	.	.	.	.	.	.	.	.	.	.	.	.	.
.	.	.	.	.	12ff#\	.	.	.	.	.	.	.	.	.	.	.	.	.
.	.	.	.	.	12gg\J	.	.	.	.	.	.	.	.	.	.	.	.	.
!	!	!	!	!	!LO:TX:a:t=P:problem: klamra łukowa	!	!	!	!	!	!	!	!	!	!	!	!	!
[4G\	.	[4G\	8g/L	.	12gg\L	.	.	.	.	.	.	.	.	.	.	.	.	.
.	.	.	.	.	12aa\	.	.	.	.	.	.	.	.	.	.	.	.	.
.	.	.	8e/J	.	.	.	.	.	.	.	.	.	.	.	.	.	.	.
.	.	.	.	.	12bb\J	.	.	.	.	.	.	.	.	.	.	.	.	.
=123	=123	=123	=123	=123	=123	=123	=123	=123	=123	=123	=123	=123	=123	=123	=123	=123	=123	=123
4G\]	4 2	4G\]	2c#/	.	(4.a/	.	1.r	.	1.r	.	1.r	.	1.r	.	2a/	.	2ee\	.
8F#\L	.	8F#\L	.	.	.	.	.	.	.	.	.	.	.	.	.	.	.	.
8E\J	.	8E\J	.	.	16b\LL	.	.	.	.	.	.	.	.	.	.	.	.	.
.	.	.	.	.	16cc#\JJ)	.	.	.	.	.	.	.	.	.	.	.	.	.
4F#\	6	4F#\	4a/	.	[4dd\	.	.	.	.	.	.	.	.	.	8dd\L	.	8ff#\L	.
.	.	.	.	.	.	.	.	.	.	.	.	.	.	.	8ff#\J	.	8aa\J	.
=124	=124	=124	=124	=124	=124	=124	=124	=124	=124	=124	=124	=124	=124	=124	=124	=124	=124	=124
!	!	!	!LO:TX:a:t=P:problem: klamra łukowa	!	!	!	!	!	!	!	!	!	!	!	!	!	!	!
!	!	!	!LO:TUP:a	!	!	!	!	!	!	!	!	!	!	!	!	!	!	!
4G\	6 5	4G\	12b\L	.	12dd\L]	.	.	.	.	.	.	.	.	.	4ee\	.	4gg\	.
.	.	.	12gg\	.	12bb\|	.	.	.	.	.	.	.	.	.	.	.	.	.
.	.	.	12ee\J	.	12gg\J|	.	.	.	.	.	.	.	.	.	.	.	.	.
4A\	6 4	4A\	4dd\	.	4ff#\	.	.	.	.	.	.	.	.	.	4dd\	.	4ff#\	.
4AA/	5 3	4AA/	4cc#t\	.	4eeT\	.	.	.	.	.	.	.	.	.	8a/L	.	8ee\L	.
.	.	.	.	.	.	.	.	.	.	.	.	.	.	.	8f#/J	.	8dd\J	.
=125	=125	=125	=125	=125	=125	=125	=125	=125	=125	=125	=125	=125	=125	=125	=125	=125	=125	=125
!	!	!	!	!	!	!	!LO:TX:i:b:t=Volti.	!	!	!	!	!	!	!	!	!	!	!
4D/	.	4D/	4dd\	.	4dd\	.	2.r	.	2.r	.	2.r	.	2.r	.	4f#/	.	4dd\	.
4r	.	4r	4r	.	4r	.	.	.	.	.	.	.	.	.	4r	.	4r	.
4r	.	4r	4r	.	4r	.	.	.	.	.	.	.	.	.	4r	.	4r	.
==	==	==	==	==	==	==	==	==	==	==	==	==	==	==	==	==	==	==
*-	*-	*-	*-	*-	*-	*-	*-	*-	*-	*-	*-	*-	*-	*-	*-	*-	*-	*-
!!!system-decoration: [(s1,s2)][(s3,s4,s5,s6)][(s7,s8,s9,s10)]
!!!RDF**kern: | = vertical stroke
!!!RDF**kern: > = above
!!!RDF**dynam: f = for
!!!RDF**dynam: p = pia
!!!RDF**kern: < = below
!!!ENC: Berenika Jozajtis
!!!END: 2022-04-11
!!!EED: Andrzej Borzym
!!!EEV: 2022-05-10
